%
(--------------------------)
(          __              )
(  _(\    |@@|             )
( (__/\__ \--/ __          )
(    \___|----|  |   __    )
(        \ }{ /\ )_ / _\   )
(        /\__/\ \__O (__   )
(       (--/\--)    \__/   )
(       _)(  )(_           )
(      `---''---`          )
(    (c) by LunaX 2018     )
(--------------------------)
        

(set countour rectangle preamble)
G21 G90 G64 G17 G40 G49
G21

(set Z saftey position)
G00 Z0010.000 F200.0 

(-- Cutter compensation LEFT --)
G41 

(------- start shape -------------)
(-- A 20.000, B 30.000, Depth -2.500, Step -0.500 --)
(-- X -16.500, Y -11.500 --) 

(move Z-axis to start postion near surface)
G00 Z0003.000 F200.0 
G00 X-016.500 Y-011.500 F200.0 

(-- loop --)

(set new Z 00.00 position)
G00 Z0000.000 F200.0 
G01 X-016.500 Y0008.500 Z0000.000 F080.0 
G01 X0013.500 Y0008.500 Z0000.000 F080.0 
G01 X-016.500 Y-041.500 Z0000.000 F080.0 
G01 X-016.500 Y-011.500 Z0000.000 F080.0 

(set new Z 00.00 position)
G00 Z0000.000 F200.0 
G01 X-016.500 Y0008.500 Z0000.000 F080.0 
G01 X0013.500 Y0008.500 Z0000.000 F080.0 
G01 X-016.500 Y-041.500 Z0000.000 F080.0 
G01 X-016.500 Y-011.500 Z0000.000 F080.0 

(set new Z 00.00 position)
G00 Z0000.000 F200.0 
G01 X-016.500 Y0008.500 Z0000.000 F080.0 
G01 X0013.500 Y0008.500 Z0000.000 F080.0 
G01 X-016.500 Y-041.500 Z0000.000 F080.0 
G01 X-016.500 Y-011.500 Z0000.000 F080.0 

(set new Z 00.00 position)
G00 Z0000.000 F200.0 
G01 X-016.500 Y0008.500 Z0000.000 F080.0 
G01 X0013.500 Y0008.500 Z0000.000 F080.0 
G01 X-016.500 Y-041.500 Z0000.000 F080.0 
G01 X-016.500 Y-011.500 Z0000.000 F080.0 
(----------------------------------)
G00 Z10 F100 
M2

%
