%
(--------------------------)
(          __              )
(  _(\    |@@|             )
( (__/\__ \--/ __          )
(    \___|----|  |   __    )
(        \ }{ /\ )_ / _\   )
(        /\__/\ \__O (__   )
(       (--/\--)    \__/   )
(       _)(  )(_           )
(      `---''---`          )
(    (c) by LunaX 2018     )
(--------------------------)
        

(set preamble)
G21 G90 G64 G17 G40 G49
G21

(set Z saftey position)
G00 Z0010.000 F200.0 

(set center position)
G00 X0000.000 Y0000.000 F200.0 

(------- start shape -------------)

(move Z-axis to start postion near surface)
G00 Z0003.000 F200.0 
(-- cutter compensation --)
G42.1 D 6.00 

(-- START DEPTH Loop --)
  (-- START Track Loop  --)

  (-- next depth z -001.000 --)
  G01 Z-001.000 
  G01 X0000.000 Y0000.000 F080.0
  G02 X-010.000 Y0010.000 I0000.000 J0010.000 F080.0
  G01 X-010.000 Y0060.000 F080.0
  G02 X0000.000 Y0070.000 I0010.000 J0000.000 F080.0
  G01 X0080.000 Y0070.000 F080.0
  G02 X0090.000 Y0060.000 I0000.000 J-010.000 F080.0
  G01 X0090.000 Y0010.000 F080.0
  G02 X0080.000 Y0000.000 I-010.000 J0000.000 F080.0
  G01 X0000.000 Y0000.000 F080.0
  (-- END Track Loop  --)
  (-- START Track Loop  --)

  (-- next depth z -001.500 --)
  G01 Z-001.500 
  G01 X0000.000 Y0000.000 F080.0
  G02 X-010.000 Y0010.000 I0000.000 J0010.000 F080.0
  G01 X-010.000 Y0060.000 F080.0
  G02 X0000.000 Y0070.000 I0010.000 J0000.000 F080.0
  G01 X0080.000 Y0070.000 F080.0
  G02 X0090.000 Y0060.000 I0000.000 J-010.000 F080.0
  G01 X0090.000 Y0010.000 F080.0
  G02 X0080.000 Y0000.000 I-010.000 J0000.000 F080.0
  G01 X0000.000 Y0000.000 F080.0
  (-- END Track Loop  --)
  (-- START Track Loop  --)

  (-- next depth z -002.000 --)
  G01 Z-002.000 
  G01 X0000.000 Y0000.000 F080.0
  G02 X-010.000 Y0010.000 I0000.000 J0010.000 F080.0
  G01 X-010.000 Y0060.000 F080.0
  G02 X0000.000 Y0070.000 I0010.000 J0000.000 F080.0
  G01 X0080.000 Y0070.000 F080.0
  G02 X0090.000 Y0060.000 I0000.000 J-010.000 F080.0
  G01 X0090.000 Y0010.000 F080.0
  G02 X0080.000 Y0000.000 I-010.000 J0000.000 F080.0
  G01 X0000.000 Y0000.000 F080.0
  (-- END Track Loop  --)
  (-- START Track Loop  --)

  (-- next depth z -002.500 --)
  G01 Z-002.500 
  G01 X0000.000 Y0000.000 F080.0
  G02 X-010.000 Y0010.000 I0000.000 J0010.000 F080.0
  G01 X-010.000 Y0060.000 F080.0
  G02 X0000.000 Y0070.000 I0010.000 J0000.000 F080.0
  G01 X0080.000 Y0070.000 F080.0
  G02 X0090.000 Y0060.000 I0000.000 J-010.000 F080.0
  G01 X0090.000 Y0010.000 F080.0
  G02 X0080.000 Y0000.000 I-010.000 J0000.000 F080.0
  G01 X0000.000 Y0000.000 F080.0
  (-- END Track Loop  --)
  (-- START Track Loop  --)

  (-- next depth z -003.000 --)
  G01 Z-003.000 
  G01 X0000.000 Y0000.000 F080.0
  G02 X-010.000 Y0010.000 I0000.000 J0010.000 F080.0
  G01 X-010.000 Y0060.000 F080.0
  G02 X0000.000 Y0070.000 I0010.000 J0000.000 F080.0
  G01 X0080.000 Y0070.000 F080.0
  G02 X0090.000 Y0060.000 I0000.000 J-010.000 F080.0
  G01 X0090.000 Y0010.000 F080.0
  G02 X0080.000 Y0000.000 I-010.000 J0000.000 F080.0
  G01 X0000.000 Y0000.000 F080.0
  (-- END Track Loop  --)
  (-- START Track Loop  --)

  (-- next depth z -003.500 --)
  G01 Z-003.500 
  G01 X0000.000 Y0000.000 F080.0
  G02 X-010.000 Y0010.000 I0000.000 J0010.000 F080.0
  G01 X-010.000 Y0060.000 F080.0
  G02 X0000.000 Y0070.000 I0010.000 J0000.000 F080.0
  G01 X0080.000 Y0070.000 F080.0
  G02 X0090.000 Y0060.000 I0000.000 J-010.000 F080.0
  G01 X0090.000 Y0010.000 F080.0
  G02 X0080.000 Y0000.000 I-010.000 J0000.000 F080.0
  G01 X0000.000 Y0000.000 F080.0
  (-- END Track Loop  --)
  (-- START Track Loop  --)

  (-- next depth z -004.000 --)
  G01 Z-004.000 
  G01 X0000.000 Y0000.000 F080.0
  G02 X-010.000 Y0010.000 I0000.000 J0010.000 F080.0
  G01 X-010.000 Y0060.000 F080.0
  G02 X0000.000 Y0070.000 I0010.000 J0000.000 F080.0
  G01 X0080.000 Y0070.000 F080.0
  G02 X0090.000 Y0060.000 I0000.000 J-010.000 F080.0
  G01 X0090.000 Y0010.000 F080.0
  G02 X0080.000 Y0000.000 I-010.000 J0000.000 F080.0
  G01 X0000.000 Y0000.000 F080.0
  (-- END Track Loop  --)
  (-- START Track Loop  --)

  (-- next depth z -004.500 --)
  G01 Z-004.500 
  G01 X0000.000 Y0000.000 F080.0
  G02 X-010.000 Y0010.000 I0000.000 J0010.000 F080.0
  G01 X-010.000 Y0060.000 F080.0
  G02 X0000.000 Y0070.000 I0010.000 J0000.000 F080.0
  G01 X0080.000 Y0070.000 F080.0
  G02 X0090.000 Y0060.000 I0000.000 J-010.000 F080.0
  G01 X0090.000 Y0010.000 F080.0
  G02 X0080.000 Y0000.000 I-010.000 J0000.000 F080.0
  G01 X0000.000 Y0000.000 F080.0
  (-- END Track Loop  --)
  (-- START Track Loop  --)

  (-- next depth z -005.000 --)
  G01 Z-005.000 
  G01 X0000.000 Y0000.000 F080.0
  G02 X-010.000 Y0010.000 I0000.000 J0010.000 F080.0
  G01 X-010.000 Y0060.000 F080.0
  G02 X0000.000 Y0070.000 I0010.000 J0000.000 F080.0
  G01 X0080.000 Y0070.000 F080.0
  G02 X0090.000 Y0060.000 I0000.000 J-010.000 F080.0
  G01 X0090.000 Y0010.000 F080.0
  G02 X0080.000 Y0000.000 I-010.000 J0000.000 F080.0
  G01 X0000.000 Y0000.000 F080.0
  (-- END Track Loop  --)
  (-- START Track Loop  --)

  (-- next depth z -005.500 --)
  G01 Z-005.500 
  G01 X0000.000 Y0000.000 F080.0
  G02 X-010.000 Y0010.000 I0000.000 J0010.000 F080.0
  G01 X-010.000 Y0060.000 F080.0
  G02 X0000.000 Y0070.000 I0010.000 J0000.000 F080.0
  G01 X0080.000 Y0070.000 F080.0
  G02 X0090.000 Y0060.000 I0000.000 J-010.000 F080.0
  G01 X0090.000 Y0010.000 F080.0
  G02 X0080.000 Y0000.000 I-010.000 J0000.000 F080.0
  G01 X0000.000 Y0000.000 F080.0
  (-- END Track Loop  --)
  (-- START Track Loop  --)

  (-- next depth z -006.000 --)
  G01 Z-006.000 
  G01 X0000.000 Y0000.000 F080.0
  G02 X-010.000 Y0010.000 I0000.000 J0010.000 F080.0
  G01 X-010.000 Y0060.000 F080.0
  G02 X0000.000 Y0070.000 I0010.000 J0000.000 F080.0
  G01 X0080.000 Y0070.000 F080.0
  G02 X0090.000 Y0060.000 I0000.000 J-010.000 F080.0
  G01 X0090.000 Y0010.000 F080.0
  G02 X0080.000 Y0000.000 I-010.000 J0000.000 F080.0
  G01 X0000.000 Y0000.000 F080.0
  (-- END Track Loop  --)
  (-- START Track Loop  --)

  (-- next depth z -006.500 --)
  G01 Z-006.500 
  G01 X0000.000 Y0000.000 F080.0
  G02 X-010.000 Y0010.000 I0000.000 J0010.000 F080.0
  G01 X-010.000 Y0060.000 F080.0
  G02 X0000.000 Y0070.000 I0010.000 J0000.000 F080.0
  G01 X0080.000 Y0070.000 F080.0
  G02 X0090.000 Y0060.000 I0000.000 J-010.000 F080.0
  G01 X0090.000 Y0010.000 F080.0
  G02 X0080.000 Y0000.000 I-010.000 J0000.000 F080.0
  G01 X0000.000 Y0000.000 F080.0
  (-- END Track Loop  --)
  (-- START Track Loop  --)

  (-- next depth z -007.000 --)
  G01 Z-007.000 
  G01 X0000.000 Y0000.000 F080.0
  G02 X-010.000 Y0010.000 I0000.000 J0010.000 F080.0
  G01 X-010.000 Y0060.000 F080.0
  G02 X0000.000 Y0070.000 I0010.000 J0000.000 F080.0
  G01 X0080.000 Y0070.000 F080.0
  G02 X0090.000 Y0060.000 I0000.000 J-010.000 F080.0
  G01 X0090.000 Y0010.000 F080.0
  G02 X0080.000 Y0000.000 I-010.000 J0000.000 F080.0
  G01 X0000.000 Y0000.000 F080.0
  (-- END Track Loop  --)
  (-- START Track Loop  --)

  (-- next depth z -007.500 --)
  G01 Z-007.500 
  G01 X0000.000 Y0000.000 F080.0
  G02 X-010.000 Y0010.000 I0000.000 J0010.000 F080.0
  G01 X-010.000 Y0060.000 F080.0
  G02 X0000.000 Y0070.000 I0010.000 J0000.000 F080.0
  G01 X0080.000 Y0070.000 F080.0
  G02 X0090.000 Y0060.000 I0000.000 J-010.000 F080.0
  G01 X0090.000 Y0010.000 F080.0
  G02 X0080.000 Y0000.000 I-010.000 J0000.000 F080.0
  G01 X0000.000 Y0000.000 F080.0
  (-- END Track Loop  --)
  (-- START Track Loop  --)

  (-- next depth z -008.000 --)
  G01 Z-008.000 
  G01 X0000.000 Y0000.000 F080.0
  G02 X-010.000 Y0010.000 I0000.000 J0010.000 F080.0
  G01 X-010.000 Y0060.000 F080.0
  G02 X0000.000 Y0070.000 I0010.000 J0000.000 F080.0
  G01 X0080.000 Y0070.000 F080.0
  G02 X0090.000 Y0060.000 I0000.000 J-010.000 F080.0
  G01 X0090.000 Y0010.000 F080.0
  G02 X0080.000 Y0000.000 I-010.000 J0000.000 F080.0
  G01 X0000.000 Y0000.000 F080.0
  (-- END Track Loop  --)
  (-- START Track Loop  --)

  (-- next depth z -008.500 --)
  G01 Z-008.500 
  G01 X0000.000 Y0000.000 F080.0
  G02 X-010.000 Y0010.000 I0000.000 J0010.000 F080.0
  G01 X-010.000 Y0060.000 F080.0
  G02 X0000.000 Y0070.000 I0010.000 J0000.000 F080.0
  G01 X0080.000 Y0070.000 F080.0
  G02 X0090.000 Y0060.000 I0000.000 J-010.000 F080.0
  G01 X0090.000 Y0010.000 F080.0
  G02 X0080.000 Y0000.000 I-010.000 J0000.000 F080.0
  G01 X0000.000 Y0000.000 F080.0
  (-- END Track Loop  --)
  (-- START Track Loop  --)

  (-- next depth z -008.750 --)
  G01 Z-008.750 
  G01 X0000.000 Y0000.000 F080.0
  G02 X-010.000 Y0010.000 I0000.000 J0010.000 F080.0
  G01 X-010.000 Y0060.000 F080.0
  G02 X0000.000 Y0070.000 I0010.000 J0000.000 F080.0
  G01 X0080.000 Y0070.000 F080.0
  G02 X0090.000 Y0060.000 I0000.000 J-010.000 F080.0
  G01 X0090.000 Y0010.000 F080.0
  G02 X0080.000 Y0000.000 I-010.000 J0000.000 F080.0
  G01 X0000.000 Y0000.000 F080.0
  (-- END Track Loop  --)
(-- END DEPTH loop --)
G01 X0000.000 Y0000.000 Z0010.000 F200.0 
G00 Z10 F100 
M2

%
