%
(--------------------------)
(          __              )
(  _(\    |@@|             )
( (__/\__ \--/ __          )
(    \___|----|  |   __    )
(        \ }{ /\ )_ / _\   )
(        /\__/\ \__O (__   )
(       (--/\--)    \__/   )
(       _)(  )(_           )
(      `---''---`          )
(    (c) by LunaX 2018     )
(--------------------------)
        

(set countour arc preamble)
G21 G90 G64 G17 G40 G49
G21

(set Z saftey position)
G00 Z0010.000 F200.0 

(-- Cutter compensation LEFT --)
G41 

(-- Cutter compensation RIGHT --)
G41 
G00 X0050.000 Y0000.000 F200.0 

(move Z-axis to start postion near surface)
G00 Z0003.000 F200.0 

(------- start circel -------------)
(-- Dia 100.000, Depth -3.750, Step Z -1.000 --)
(-- X 50.000, Y 00.000 --) 

(-- loop --)

(set new Z -1.00 position)
G01 Z-001.000 F080.0 
G02 X0050.000 Y0000.000 I-050.000 J-000.000 F100.0 

(set new Z -2.00 position)
G01 Z-002.000 F080.0 
G02 X0050.000 Y0000.000 I-050.000 J-000.000 F100.0 

(set new Z -3.00 position)
G01 Z-003.000 F080.0 
G02 X0050.000 Y0000.000 I-050.000 J-000.000 F100.0 

(set new Z -3.75 position)
G01 Z-003.750 F080.0 
G02 X0050.000 Y0000.000 I-050.000 J-000.000 F100.0 
(----------------------------------)
G00 Z10 F100 
M2

%
