%
(set preamble)
G21 G90 G64 G17 G40 G49
G21

(set Z saftey position)
G00 Z0010.000 F200.0 

(set center position)
G00 X0000.000 Y0000.000 F200.0 

(------- start shape -------------)

(move Z-axis to start postion near surface)
G00 Z0003.000 F200.0 

(-- START DEPTH Loop --)
  (-- START Track Loop  --)

  (-- next depth z -001.000 --)
  G01 Z-001.000 
  G01 X0000.000 Y-003.000 F080.0
  G02 X-013.000 Y0010.000 I0000.000 J0013.000 F080.0
  G01 X-013.000 Y0060.000 F080.0
  G02 X0000.000 Y0073.000 I0013.000 J0000.000 F080.0
  G01 X0080.000 Y0073.000 F080.0
  G02 X0093.000 Y0060.000 I0000.000 J-013.000 F080.0
  G01 X0093.000 Y0010.000 F080.0
  G02 X0080.000 Y-003.000 I-013.000 J0000.000 F080.0
  G01 X0000.000 Y-003.000 F080.0

  (-- next depth z -001.000 --)
  G01 Z-001.000 
  G01 X0000.000 Y-004.000 F080.0
  G02 X-014.000 Y0010.000 I0000.000 J0014.000 F080.0
  G01 X-014.000 Y0060.000 F080.0
  G02 X0000.000 Y0074.000 I0014.000 J0000.000 F080.0
  G01 X0080.000 Y0074.000 F080.0
  G02 X0094.000 Y0060.000 I0000.000 J-014.000 F080.0
  G01 X0094.000 Y0010.000 F080.0
  G02 X0080.000 Y-004.000 I-014.000 J0000.000 F080.0
  G01 X0000.000 Y-004.000 F080.0

  (-- next depth z -001.000 --)
  G01 Z-001.000 
  G01 X0000.000 Y-005.000 F080.0
  G02 X-015.000 Y0010.000 I0000.000 J0015.000 F080.0
  G01 X-015.000 Y0060.000 F080.0
  G02 X0000.000 Y0075.000 I0015.000 J0000.000 F080.0
  G01 X0080.000 Y0075.000 F080.0
  G02 X0095.000 Y0060.000 I0000.000 J-015.000 F080.0
  G01 X0095.000 Y0010.000 F080.0
  G02 X0080.000 Y-005.000 I-015.000 J0000.000 F080.0
  G01 X0000.000 Y-005.000 F080.0

  (-- next depth z -001.000 --)
  G01 Z-001.000 
  G01 X0000.000 Y-006.000 F080.0
  G02 X-016.000 Y0010.000 I0000.000 J0016.000 F080.0
  G01 X-016.000 Y0060.000 F080.0
  G02 X0000.000 Y0076.000 I0016.000 J0000.000 F080.0
  G01 X0080.000 Y0076.000 F080.0
  G02 X0096.000 Y0060.000 I0000.000 J-016.000 F080.0
  G01 X0096.000 Y0010.000 F080.0
  G02 X0080.000 Y-006.000 I-016.000 J0000.000 F080.0
  G01 X0000.000 Y-006.000 F080.0

  (-- next depth z -001.000 --)
  G01 Z-001.000 
  G01 X0000.000 Y-007.000 F080.0
  G02 X-017.000 Y0010.000 I0000.000 J0017.000 F080.0
  G01 X-017.000 Y0060.000 F080.0
  G02 X0000.000 Y0077.000 I0017.000 J0000.000 F080.0
  G01 X0080.000 Y0077.000 F080.0
  G02 X0097.000 Y0060.000 I0000.000 J-017.000 F080.0
  G01 X0097.000 Y0010.000 F080.0
  G02 X0080.000 Y-007.000 I-017.000 J0000.000 F080.0
  G01 X0000.000 Y-007.000 F080.0

  (-- next depth z -001.000 --)
  G01 Z-001.000 
  G01 X0000.000 Y-008.000 F080.0
  G02 X-018.000 Y0010.000 I0000.000 J0018.000 F080.0
  G01 X-018.000 Y0060.000 F080.0
  G02 X0000.000 Y0078.000 I0018.000 J0000.000 F080.0
  G01 X0080.000 Y0078.000 F080.0
  G02 X0098.000 Y0060.000 I0000.000 J-018.000 F080.0
  G01 X0098.000 Y0010.000 F080.0
  G02 X0080.000 Y-008.000 I-018.000 J0000.000 F080.0
  G01 X0000.000 Y-008.000 F080.0

  (-- next depth z -001.000 --)
  G01 Z-001.000 
  G01 X0000.000 Y-009.000 F080.0
  G02 X-019.000 Y0010.000 I0000.000 J0019.000 F080.0
  G01 X-019.000 Y0060.000 F080.0
  G02 X0000.000 Y0079.000 I0019.000 J0000.000 F080.0
  G01 X0080.000 Y0079.000 F080.0
  G02 X0099.000 Y0060.000 I0000.000 J-019.000 F080.0
  G01 X0099.000 Y0010.000 F080.0
  G02 X0080.000 Y-009.000 I-019.000 J0000.000 F080.0
  G01 X0000.000 Y-009.000 F080.0

  (-- next depth z -001.000 --)
  G01 Z-001.000 
  G01 X0000.000 Y-010.000 F080.0
  G02 X-020.000 Y0010.000 I0000.000 J0020.000 F080.0
  G01 X-020.000 Y0060.000 F080.0
  G02 X0000.000 Y0080.000 I0020.000 J0000.000 F080.0
  G01 X0080.000 Y0080.000 F080.0
  G02 X0100.000 Y0060.000 I0000.000 J-020.000 F080.0
  G01 X0100.000 Y0010.000 F080.0
  G02 X0080.000 Y-010.000 I-020.000 J0000.000 F080.0
  G01 X0000.000 Y-010.000 F080.0

  (-- next depth z -001.000 --)
  G01 Z-001.000 
  G01 X0000.000 Y-011.000 F080.0
  G02 X-021.000 Y0010.000 I0000.000 J0021.000 F080.0
  G01 X-021.000 Y0060.000 F080.0
  G02 X0000.000 Y0081.000 I0021.000 J0000.000 F080.0
  G01 X0080.000 Y0081.000 F080.0
  G02 X0101.000 Y0060.000 I0000.000 J-021.000 F080.0
  G01 X0101.000 Y0010.000 F080.0
  G02 X0080.000 Y-011.000 I-021.000 J0000.000 F080.0
  G01 X0000.000 Y-011.000 F080.0

  (-- next depth z -001.000 --)
  G01 Z-001.000 
  G01 X0000.000 Y-012.000 F080.0
  G02 X-022.000 Y0010.000 I0000.000 J0022.000 F080.0
  G01 X-022.000 Y0060.000 F080.0
  G02 X0000.000 Y0082.000 I0022.000 J0000.000 F080.0
  G01 X0080.000 Y0082.000 F080.0
  G02 X0102.000 Y0060.000 I0000.000 J-022.000 F080.0
  G01 X0102.000 Y0010.000 F080.0
  G02 X0080.000 Y-012.000 I-022.000 J0000.000 F080.0
  G01 X0000.000 Y-012.000 F080.0

  (-- next depth z -001.000 --)
  G01 Z-001.000 
  G01 X0000.000 Y-013.000 F080.0
  G02 X-023.000 Y0010.000 I0000.000 J0023.000 F080.0
  G01 X-023.000 Y0060.000 F080.0
  G02 X0000.000 Y0083.000 I0023.000 J0000.000 F080.0
  G01 X0080.000 Y0083.000 F080.0
  G02 X0103.000 Y0060.000 I0000.000 J-023.000 F080.0
  G01 X0103.000 Y0010.000 F080.0
  G02 X0080.000 Y-013.000 I-023.000 J0000.000 F080.0
  G01 X0000.000 Y-013.000 F080.0

  (-- next depth z -001.000 --)
  G01 Z-001.000 
  G01 X0000.000 Y-014.000 F080.0
  G02 X-024.000 Y0010.000 I0000.000 J0024.000 F080.0
  G01 X-024.000 Y0060.000 F080.0
  G02 X0000.000 Y0084.000 I0024.000 J0000.000 F080.0
  G01 X0080.000 Y0084.000 F080.0
  G02 X0104.000 Y0060.000 I0000.000 J-024.000 F080.0
  G01 X0104.000 Y0010.000 F080.0
  G02 X0080.000 Y-014.000 I-024.000 J0000.000 F080.0
  G01 X0000.000 Y-014.000 F080.0

  (-- next depth z -001.000 --)
  G01 Z-001.000 
  G01 X0000.000 Y-015.000 F080.0
  G02 X-025.000 Y0010.000 I0000.000 J0025.000 F080.0
  G01 X-025.000 Y0060.000 F080.0
  G02 X0000.000 Y0085.000 I0025.000 J0000.000 F080.0
  G01 X0080.000 Y0085.000 F080.0
  G02 X0105.000 Y0060.000 I0000.000 J-025.000 F080.0
  G01 X0105.000 Y0010.000 F080.0
  G02 X0080.000 Y-015.000 I-025.000 J0000.000 F080.0
  G01 X0000.000 Y-015.000 F080.0

  (-- next depth z -001.000 --)
  G01 Z-001.000 
  G01 X0000.000 Y-016.000 F080.0
  G02 X-026.000 Y0010.000 I0000.000 J0026.000 F080.0
  G01 X-026.000 Y0060.000 F080.0
  G02 X0000.000 Y0086.000 I0026.000 J0000.000 F080.0
  G01 X0080.000 Y0086.000 F080.0
  G02 X0106.000 Y0060.000 I0000.000 J-026.000 F080.0
  G01 X0106.000 Y0010.000 F080.0
  G02 X0080.000 Y-016.000 I-026.000 J0000.000 F080.0
  G01 X0000.000 Y-016.000 F080.0

  (-- next depth z -001.000 --)
  G01 Z-001.000 
  G01 X0000.000 Y-017.000 F080.0
  G02 X-027.000 Y0010.000 I0000.000 J0027.000 F080.0
  G01 X-027.000 Y0060.000 F080.0
  G02 X0000.000 Y0087.000 I0027.000 J0000.000 F080.0
  G01 X0080.000 Y0087.000 F080.0
  G02 X0107.000 Y0060.000 I0000.000 J-027.000 F080.0
  G01 X0107.000 Y0010.000 F080.0
  G02 X0080.000 Y-017.000 I-027.000 J0000.000 F080.0
  G01 X0000.000 Y-017.000 F080.0
  (-- END Track Loop  --)
  (-- START Track Loop  --)

  (-- next depth z -001.500 --)
  G01 Z-001.500 
  G01 X0000.000 Y-003.000 F080.0
  G02 X-013.000 Y0010.000 I0000.000 J0013.000 F080.0
  G01 X-013.000 Y0060.000 F080.0
  G02 X0000.000 Y0073.000 I0013.000 J0000.000 F080.0
  G01 X0080.000 Y0073.000 F080.0
  G02 X0093.000 Y0060.000 I0000.000 J-013.000 F080.0
  G01 X0093.000 Y0010.000 F080.0
  G02 X0080.000 Y-003.000 I-013.000 J0000.000 F080.0
  G01 X0000.000 Y-003.000 F080.0

  (-- next depth z -001.500 --)
  G01 Z-001.500 
  G01 X0000.000 Y-004.000 F080.0
  G02 X-014.000 Y0010.000 I0000.000 J0014.000 F080.0
  G01 X-014.000 Y0060.000 F080.0
  G02 X0000.000 Y0074.000 I0014.000 J0000.000 F080.0
  G01 X0080.000 Y0074.000 F080.0
  G02 X0094.000 Y0060.000 I0000.000 J-014.000 F080.0
  G01 X0094.000 Y0010.000 F080.0
  G02 X0080.000 Y-004.000 I-014.000 J0000.000 F080.0
  G01 X0000.000 Y-004.000 F080.0

  (-- next depth z -001.500 --)
  G01 Z-001.500 
  G01 X0000.000 Y-005.000 F080.0
  G02 X-015.000 Y0010.000 I0000.000 J0015.000 F080.0
  G01 X-015.000 Y0060.000 F080.0
  G02 X0000.000 Y0075.000 I0015.000 J0000.000 F080.0
  G01 X0080.000 Y0075.000 F080.0
  G02 X0095.000 Y0060.000 I0000.000 J-015.000 F080.0
  G01 X0095.000 Y0010.000 F080.0
  G02 X0080.000 Y-005.000 I-015.000 J0000.000 F080.0
  G01 X0000.000 Y-005.000 F080.0

  (-- next depth z -001.500 --)
  G01 Z-001.500 
  G01 X0000.000 Y-006.000 F080.0
  G02 X-016.000 Y0010.000 I0000.000 J0016.000 F080.0
  G01 X-016.000 Y0060.000 F080.0
  G02 X0000.000 Y0076.000 I0016.000 J0000.000 F080.0
  G01 X0080.000 Y0076.000 F080.0
  G02 X0096.000 Y0060.000 I0000.000 J-016.000 F080.0
  G01 X0096.000 Y0010.000 F080.0
  G02 X0080.000 Y-006.000 I-016.000 J0000.000 F080.0
  G01 X0000.000 Y-006.000 F080.0

  (-- next depth z -001.500 --)
  G01 Z-001.500 
  G01 X0000.000 Y-007.000 F080.0
  G02 X-017.000 Y0010.000 I0000.000 J0017.000 F080.0
  G01 X-017.000 Y0060.000 F080.0
  G02 X0000.000 Y0077.000 I0017.000 J0000.000 F080.0
  G01 X0080.000 Y0077.000 F080.0
  G02 X0097.000 Y0060.000 I0000.000 J-017.000 F080.0
  G01 X0097.000 Y0010.000 F080.0
  G02 X0080.000 Y-007.000 I-017.000 J0000.000 F080.0
  G01 X0000.000 Y-007.000 F080.0

  (-- next depth z -001.500 --)
  G01 Z-001.500 
  G01 X0000.000 Y-008.000 F080.0
  G02 X-018.000 Y0010.000 I0000.000 J0018.000 F080.0
  G01 X-018.000 Y0060.000 F080.0
  G02 X0000.000 Y0078.000 I0018.000 J0000.000 F080.0
  G01 X0080.000 Y0078.000 F080.0
  G02 X0098.000 Y0060.000 I0000.000 J-018.000 F080.0
  G01 X0098.000 Y0010.000 F080.0
  G02 X0080.000 Y-008.000 I-018.000 J0000.000 F080.0
  G01 X0000.000 Y-008.000 F080.0

  (-- next depth z -001.500 --)
  G01 Z-001.500 
  G01 X0000.000 Y-009.000 F080.0
  G02 X-019.000 Y0010.000 I0000.000 J0019.000 F080.0
  G01 X-019.000 Y0060.000 F080.0
  G02 X0000.000 Y0079.000 I0019.000 J0000.000 F080.0
  G01 X0080.000 Y0079.000 F080.0
  G02 X0099.000 Y0060.000 I0000.000 J-019.000 F080.0
  G01 X0099.000 Y0010.000 F080.0
  G02 X0080.000 Y-009.000 I-019.000 J0000.000 F080.0
  G01 X0000.000 Y-009.000 F080.0

  (-- next depth z -001.500 --)
  G01 Z-001.500 
  G01 X0000.000 Y-010.000 F080.0
  G02 X-020.000 Y0010.000 I0000.000 J0020.000 F080.0
  G01 X-020.000 Y0060.000 F080.0
  G02 X0000.000 Y0080.000 I0020.000 J0000.000 F080.0
  G01 X0080.000 Y0080.000 F080.0
  G02 X0100.000 Y0060.000 I0000.000 J-020.000 F080.0
  G01 X0100.000 Y0010.000 F080.0
  G02 X0080.000 Y-010.000 I-020.000 J0000.000 F080.0
  G01 X0000.000 Y-010.000 F080.0

  (-- next depth z -001.500 --)
  G01 Z-001.500 
  G01 X0000.000 Y-011.000 F080.0
  G02 X-021.000 Y0010.000 I0000.000 J0021.000 F080.0
  G01 X-021.000 Y0060.000 F080.0
  G02 X0000.000 Y0081.000 I0021.000 J0000.000 F080.0
  G01 X0080.000 Y0081.000 F080.0
  G02 X0101.000 Y0060.000 I0000.000 J-021.000 F080.0
  G01 X0101.000 Y0010.000 F080.0
  G02 X0080.000 Y-011.000 I-021.000 J0000.000 F080.0
  G01 X0000.000 Y-011.000 F080.0

  (-- next depth z -001.500 --)
  G01 Z-001.500 
  G01 X0000.000 Y-012.000 F080.0
  G02 X-022.000 Y0010.000 I0000.000 J0022.000 F080.0
  G01 X-022.000 Y0060.000 F080.0
  G02 X0000.000 Y0082.000 I0022.000 J0000.000 F080.0
  G01 X0080.000 Y0082.000 F080.0
  G02 X0102.000 Y0060.000 I0000.000 J-022.000 F080.0
  G01 X0102.000 Y0010.000 F080.0
  G02 X0080.000 Y-012.000 I-022.000 J0000.000 F080.0
  G01 X0000.000 Y-012.000 F080.0

  (-- next depth z -001.500 --)
  G01 Z-001.500 
  G01 X0000.000 Y-013.000 F080.0
  G02 X-023.000 Y0010.000 I0000.000 J0023.000 F080.0
  G01 X-023.000 Y0060.000 F080.0
  G02 X0000.000 Y0083.000 I0023.000 J0000.000 F080.0
  G01 X0080.000 Y0083.000 F080.0
  G02 X0103.000 Y0060.000 I0000.000 J-023.000 F080.0
  G01 X0103.000 Y0010.000 F080.0
  G02 X0080.000 Y-013.000 I-023.000 J0000.000 F080.0
  G01 X0000.000 Y-013.000 F080.0

  (-- next depth z -001.500 --)
  G01 Z-001.500 
  G01 X0000.000 Y-014.000 F080.0
  G02 X-024.000 Y0010.000 I0000.000 J0024.000 F080.0
  G01 X-024.000 Y0060.000 F080.0
  G02 X0000.000 Y0084.000 I0024.000 J0000.000 F080.0
  G01 X0080.000 Y0084.000 F080.0
  G02 X0104.000 Y0060.000 I0000.000 J-024.000 F080.0
  G01 X0104.000 Y0010.000 F080.0
  G02 X0080.000 Y-014.000 I-024.000 J0000.000 F080.0
  G01 X0000.000 Y-014.000 F080.0

  (-- next depth z -001.500 --)
  G01 Z-001.500 
  G01 X0000.000 Y-015.000 F080.0
  G02 X-025.000 Y0010.000 I0000.000 J0025.000 F080.0
  G01 X-025.000 Y0060.000 F080.0
  G02 X0000.000 Y0085.000 I0025.000 J0000.000 F080.0
  G01 X0080.000 Y0085.000 F080.0
  G02 X0105.000 Y0060.000 I0000.000 J-025.000 F080.0
  G01 X0105.000 Y0010.000 F080.0
  G02 X0080.000 Y-015.000 I-025.000 J0000.000 F080.0
  G01 X0000.000 Y-015.000 F080.0

  (-- next depth z -001.500 --)
  G01 Z-001.500 
  G01 X0000.000 Y-016.000 F080.0
  G02 X-026.000 Y0010.000 I0000.000 J0026.000 F080.0
  G01 X-026.000 Y0060.000 F080.0
  G02 X0000.000 Y0086.000 I0026.000 J0000.000 F080.0
  G01 X0080.000 Y0086.000 F080.0
  G02 X0106.000 Y0060.000 I0000.000 J-026.000 F080.0
  G01 X0106.000 Y0010.000 F080.0
  G02 X0080.000 Y-016.000 I-026.000 J0000.000 F080.0
  G01 X0000.000 Y-016.000 F080.0

  (-- next depth z -001.500 --)
  G01 Z-001.500 
  G01 X0000.000 Y-017.000 F080.0
  G02 X-027.000 Y0010.000 I0000.000 J0027.000 F080.0
  G01 X-027.000 Y0060.000 F080.0
  G02 X0000.000 Y0087.000 I0027.000 J0000.000 F080.0
  G01 X0080.000 Y0087.000 F080.0
  G02 X0107.000 Y0060.000 I0000.000 J-027.000 F080.0
  G01 X0107.000 Y0010.000 F080.0
  G02 X0080.000 Y-017.000 I-027.000 J0000.000 F080.0
  G01 X0000.000 Y-017.000 F080.0
  (-- END Track Loop  --)
(-- END DEPTH loop --)
G01 X0000.000 Y0000.000 Z0010.000 F200.0 
G00 Z10 F100 
M2

%
