%
(set preamble)
G21 G90 G64 G17 G40 G49
G21

T6
M06

(set Z saftey position)
G00 Z0010.000 F200.0 

(set center position)
G00 X0000.000 Y0000.000 F200.0 

(------- start shape -------------)

(move Z-axis to start postion near surface)
G00 Z0003.000 F200.0 

(-- START DEPTH Loop --)
  (-- START Track Loop  --)

  (-- next depth z -000.500 --)
   G00 X0027.000 Y0000.000 F0200.000
   G01 Z-000.500 F0050.000
   G02 I-027.000 F0080.000

  (-- next depth z -000.500 --)
   G00 X0024.000 Y0000.000 F0200.000
   G01 Z-000.500 F0050.000
   G02 I-024.000 F0080.000

  (-- next depth z -000.500 --)
   G00 X0021.000 Y0000.000 F0200.000
   G01 Z-000.500 F0050.000
   G02 I-021.000 F0080.000

  (-- next depth z -000.500 --)
   G00 X0018.000 Y0000.000 F0200.000
   G01 Z-000.500 F0050.000
   G02 I-018.000 F0080.000

  (-- next depth z -000.500 --)
   G00 X0015.000 Y0000.000 F0200.000
   G01 Z-000.500 F0050.000
   G02 I-015.000 F0080.000

  (-- next depth z -000.500 --)
   G00 X0012.000 Y0000.000 F0200.000
   G01 Z-000.500 F0050.000
   G02 I-012.000 F0080.000

  (-- next depth z -000.500 --)
   G00 X0009.000 Y0000.000 F0200.000
   G01 Z-000.500 F0050.000
   G02 I-009.000 F0080.000

  (-- next depth z -000.500 --)
   G00 X0006.000 Y0000.000 F0200.000
   G01 Z-000.500 F0050.000
   G02 I-006.000 F0080.000

  (-- next depth z -000.500 --)
   G00 X0003.000 Y0000.000 F0200.000
   G01 Z-000.500 F0050.000
   G02 I-003.000 F0080.000
  (-- END Track Loop  --)
  (-- START Track Loop  --)

  (-- next depth z -001.000 --)
   G00 X0027.000 Y0000.000 F0200.000
   G01 Z-001.000 F0050.000
   G02 I-027.000 F0080.000

  (-- next depth z -001.000 --)
   G00 X0024.000 Y0000.000 F0200.000
   G01 Z-001.000 F0050.000
   G02 I-024.000 F0080.000

  (-- next depth z -001.000 --)
   G00 X0021.000 Y0000.000 F0200.000
   G01 Z-001.000 F0050.000
   G02 I-021.000 F0080.000

  (-- next depth z -001.000 --)
   G00 X0018.000 Y0000.000 F0200.000
   G01 Z-001.000 F0050.000
   G02 I-018.000 F0080.000

  (-- next depth z -001.000 --)
   G00 X0015.000 Y0000.000 F0200.000
   G01 Z-001.000 F0050.000
   G02 I-015.000 F0080.000

  (-- next depth z -001.000 --)
   G00 X0012.000 Y0000.000 F0200.000
   G01 Z-001.000 F0050.000
   G02 I-012.000 F0080.000

  (-- next depth z -001.000 --)
   G00 X0009.000 Y0000.000 F0200.000
   G01 Z-001.000 F0050.000
   G02 I-009.000 F0080.000

  (-- next depth z -001.000 --)
   G00 X0006.000 Y0000.000 F0200.000
   G01 Z-001.000 F0050.000
   G02 I-006.000 F0080.000

  (-- next depth z -001.000 --)
   G00 X0003.000 Y0000.000 F0200.000
   G01 Z-001.000 F0050.000
   G02 I-003.000 F0080.000
  (-- END Track Loop  --)
  (-- START Track Loop  --)

  (-- next depth z -001.500 --)
   G00 X0027.000 Y0000.000 F0200.000
   G01 Z-001.500 F0050.000
   G02 I-027.000 F0080.000

  (-- next depth z -001.500 --)
   G00 X0024.000 Y0000.000 F0200.000
   G01 Z-001.500 F0050.000
   G02 I-024.000 F0080.000

  (-- next depth z -001.500 --)
   G00 X0021.000 Y0000.000 F0200.000
   G01 Z-001.500 F0050.000
   G02 I-021.000 F0080.000

  (-- next depth z -001.500 --)
   G00 X0018.000 Y0000.000 F0200.000
   G01 Z-001.500 F0050.000
   G02 I-018.000 F0080.000

  (-- next depth z -001.500 --)
   G00 X0015.000 Y0000.000 F0200.000
   G01 Z-001.500 F0050.000
   G02 I-015.000 F0080.000

  (-- next depth z -001.500 --)
   G00 X0012.000 Y0000.000 F0200.000
   G01 Z-001.500 F0050.000
   G02 I-012.000 F0080.000

  (-- next depth z -001.500 --)
   G00 X0009.000 Y0000.000 F0200.000
   G01 Z-001.500 F0050.000
   G02 I-009.000 F0080.000

  (-- next depth z -001.500 --)
   G00 X0006.000 Y0000.000 F0200.000
   G01 Z-001.500 F0050.000
   G02 I-006.000 F0080.000

  (-- next depth z -001.500 --)
   G00 X0003.000 Y0000.000 F0200.000
   G01 Z-001.500 F0050.000
   G02 I-003.000 F0080.000
  (-- END Track Loop  --)
  (-- START Track Loop  --)

  (-- next depth z -002.000 --)
   G00 X0027.000 Y0000.000 F0200.000
   G01 Z-002.000 F0050.000
   G02 I-027.000 F0080.000

  (-- next depth z -002.000 --)
   G00 X0024.000 Y0000.000 F0200.000
   G01 Z-002.000 F0050.000
   G02 I-024.000 F0080.000

  (-- next depth z -002.000 --)
   G00 X0021.000 Y0000.000 F0200.000
   G01 Z-002.000 F0050.000
   G02 I-021.000 F0080.000

  (-- next depth z -002.000 --)
   G00 X0018.000 Y0000.000 F0200.000
   G01 Z-002.000 F0050.000
   G02 I-018.000 F0080.000

  (-- next depth z -002.000 --)
   G00 X0015.000 Y0000.000 F0200.000
   G01 Z-002.000 F0050.000
   G02 I-015.000 F0080.000

  (-- next depth z -002.000 --)
   G00 X0012.000 Y0000.000 F0200.000
   G01 Z-002.000 F0050.000
   G02 I-012.000 F0080.000

  (-- next depth z -002.000 --)
   G00 X0009.000 Y0000.000 F0200.000
   G01 Z-002.000 F0050.000
   G02 I-009.000 F0080.000

  (-- next depth z -002.000 --)
   G00 X0006.000 Y0000.000 F0200.000
   G01 Z-002.000 F0050.000
   G02 I-006.000 F0080.000

  (-- next depth z -002.000 --)
   G00 X0003.000 Y0000.000 F0200.000
   G01 Z-002.000 F0050.000
   G02 I-003.000 F0080.000
  (-- END Track Loop  --)
  (-- START Track Loop  --)

  (-- next depth z -002.500 --)
   G00 X0027.000 Y0000.000 F0200.000
   G01 Z-002.500 F0050.000
   G02 I-027.000 F0080.000

  (-- next depth z -002.500 --)
   G00 X0024.000 Y0000.000 F0200.000
   G01 Z-002.500 F0050.000
   G02 I-024.000 F0080.000

  (-- next depth z -002.500 --)
   G00 X0021.000 Y0000.000 F0200.000
   G01 Z-002.500 F0050.000
   G02 I-021.000 F0080.000

  (-- next depth z -002.500 --)
   G00 X0018.000 Y0000.000 F0200.000
   G01 Z-002.500 F0050.000
   G02 I-018.000 F0080.000

  (-- next depth z -002.500 --)
   G00 X0015.000 Y0000.000 F0200.000
   G01 Z-002.500 F0050.000
   G02 I-015.000 F0080.000

  (-- next depth z -002.500 --)
   G00 X0012.000 Y0000.000 F0200.000
   G01 Z-002.500 F0050.000
   G02 I-012.000 F0080.000

  (-- next depth z -002.500 --)
   G00 X0009.000 Y0000.000 F0200.000
   G01 Z-002.500 F0050.000
   G02 I-009.000 F0080.000

  (-- next depth z -002.500 --)
   G00 X0006.000 Y0000.000 F0200.000
   G01 Z-002.500 F0050.000
   G02 I-006.000 F0080.000

  (-- next depth z -002.500 --)
   G00 X0003.000 Y0000.000 F0200.000
   G01 Z-002.500 F0050.000
   G02 I-003.000 F0080.000
  (-- END Track Loop  --)
(-- END DEPTH loop --)
G01 X0030.000 Y0000.000 Z0010.000 F200.0 
G00 Z10 F100 
M2

%
