%

(set preamble)
G21 G90 G64 G17 G40 G49
G21

(set Z saftey position)
G00 Z0010.000 F200.0 

(set center position)
G00 X0000.000 Y0000.000 F200.0 

(------- start shape -------------)

(move Z-axis to start postion near surface)
G00 Z0003.000 F200.0 

(-- START DEPTH Loop --)
  (-- START Track Loop  --)

  (-- next depth z -001.000 --)
  G01 Z-001.000 
  G01 X0000.000 Y-003.000
  G02 X-013.000 Y0010.000 I0000.000 J0013.000
  G01 X-013.000 Y0060.000
  G02 X0000.000 Y0073.000 I0013.000 J0000.000
  G01 X0080.000 Y0073.000
  G02 X0083.000 Y0060.000 I0000.000 J-013.000
  G01 X0093.000 Y0010.000
  G02 X0080.000 Y-003.000 I-013.000 J0000.000
  G01 X0000.000 Y-003.000

  (-- next depth z -001.000 --)
  G01 Z-001.000 
  G01 X0000.000 Y-006.000
  G02 X-016.000 Y0010.000 I0000.000 J0016.000
  G01 X-016.000 Y0060.000
  G02 X0000.000 Y0076.000 I0016.000 J0000.000
  G01 X0080.000 Y0076.000
  G02 X0086.000 Y0060.000 I0000.000 J-016.000
  G01 X0096.000 Y0010.000
  G02 X0080.000 Y-006.000 I-016.000 J0000.000
  G01 X0000.000 Y-006.000

  (-- next depth z -001.000 --)
  G01 Z-001.000 
  G01 X0000.000 Y-009.000
  G02 X-019.000 Y0010.000 I0000.000 J0019.000
  G01 X-019.000 Y0060.000
  G02 X0000.000 Y0079.000 I0019.000 J0000.000
  G01 X0080.000 Y0079.000
  G02 X0089.000 Y0060.000 I0000.000 J-019.000
  G01 X0099.000 Y0010.000
  G02 X0080.000 Y-009.000 I-019.000 J0000.000
  G01 X0000.000 Y-009.000

  (-- next depth z -001.000 --)
  G01 Z-001.000 
  G01 X0000.000 Y-012.000
  G02 X-022.000 Y0010.000 I0000.000 J0022.000
  G01 X-022.000 Y0060.000
  G02 X0000.000 Y0082.000 I0022.000 J0000.000
  G01 X0080.000 Y0082.000
  G02 X0092.000 Y0060.000 I0000.000 J-022.000
  G01 X0102.000 Y0010.000
  G02 X0080.000 Y-012.000 I-022.000 J0000.000
  G01 X0000.000 Y-012.000

  (-- next depth z -001.000 --)
  G01 Z-001.000 
  G01 X0000.000 Y-015.000
  G02 X-025.000 Y0010.000 I0000.000 J0025.000
  G01 X-025.000 Y0060.000
  G02 X0000.000 Y0085.000 I0025.000 J0000.000
  G01 X0080.000 Y0085.000
  G02 X0095.000 Y0060.000 I0000.000 J-025.000
  G01 X0105.000 Y0010.000
  G02 X0080.000 Y-015.000 I-025.000 J0000.000
  G01 X0000.000 Y-015.000

  (-- next depth z -001.000 --)
  G01 Z-001.000 
  G01 X0000.000 Y-017.000
  G02 X-027.000 Y0010.000 I0000.000 J0027.000
  G01 X-027.000 Y0060.000
  G02 X0000.000 Y0087.000 I0027.000 J0000.000
  G01 X0080.000 Y0087.000
  G02 X0097.000 Y0060.000 I0000.000 J-027.000
  G01 X0107.000 Y0010.000
  G02 X0080.000 Y-017.000 I-027.000 J0000.000
  G01 X0000.000 Y-017.000
  (-- END Track Loop  --)
  (-- START Track Loop  --)

  (-- next depth z -001.500 --)
  G01 Z-001.500 
  G01 X0000.000 Y-003.000
  G02 X-013.000 Y0010.000 I0000.000 J0013.000
  G01 X-013.000 Y0060.000
  G02 X0000.000 Y0073.000 I0013.000 J0000.000
  G01 X0080.000 Y0073.000
  G02 X0083.000 Y0060.000 I0000.000 J-013.000
  G01 X0093.000 Y0010.000
  G02 X0080.000 Y-003.000 I-013.000 J0000.000
  G01 X0000.000 Y-003.000

  (-- next depth z -001.500 --)
  G01 Z-001.500 
  G01 X0000.000 Y-006.000
  G02 X-016.000 Y0010.000 I0000.000 J0016.000
  G01 X-016.000 Y0060.000
  G02 X0000.000 Y0076.000 I0016.000 J0000.000
  G01 X0080.000 Y0076.000
  G02 X0086.000 Y0060.000 I0000.000 J-016.000
  G01 X0096.000 Y0010.000
  G02 X0080.000 Y-006.000 I-016.000 J0000.000
  G01 X0000.000 Y-006.000

  (-- next depth z -001.500 --)
  G01 Z-001.500 
  G01 X0000.000 Y-009.000
  G02 X-019.000 Y0010.000 I0000.000 J0019.000
  G01 X-019.000 Y0060.000
  G02 X0000.000 Y0079.000 I0019.000 J0000.000
  G01 X0080.000 Y0079.000
  G02 X0089.000 Y0060.000 I0000.000 J-019.000
  G01 X0099.000 Y0010.000
  G02 X0080.000 Y-009.000 I-019.000 J0000.000
  G01 X0000.000 Y-009.000

  (-- next depth z -001.500 --)
  G01 Z-001.500 
  G01 X0000.000 Y-012.000
  G02 X-022.000 Y0010.000 I0000.000 J0022.000
  G01 X-022.000 Y0060.000
  G02 X0000.000 Y0082.000 I0022.000 J0000.000
  G01 X0080.000 Y0082.000
  G02 X0092.000 Y0060.000 I0000.000 J-022.000
  G01 X0102.000 Y0010.000
  G02 X0080.000 Y-012.000 I-022.000 J0000.000
  G01 X0000.000 Y-012.000

  (-- next depth z -001.500 --)
  G01 Z-001.500 
  G01 X0000.000 Y-015.000
  G02 X-025.000 Y0010.000 I0000.000 J0025.000
  G01 X-025.000 Y0060.000
  G02 X0000.000 Y0085.000 I0025.000 J0000.000
  G01 X0080.000 Y0085.000
  G02 X0095.000 Y0060.000 I0000.000 J-025.000
  G01 X0105.000 Y0010.000
  G02 X0080.000 Y-015.000 I-025.000 J0000.000
  G01 X0000.000 Y-015.000

  (-- next depth z -001.500 --)
  G01 Z-001.500 
  G01 X0000.000 Y-017.000
  G02 X-027.000 Y0010.000 I0000.000 J0027.000
  G01 X-027.000 Y0060.000
  G02 X0000.000 Y0087.000 I0027.000 J0000.000
  G01 X0080.000 Y0087.000
  G02 X0097.000 Y0060.000 I0000.000 J-027.000
  G01 X0107.000 Y0010.000
  G02 X0080.000 Y-017.000 I-027.000 J0000.000
  G01 X0000.000 Y-017.000
  (-- END Track Loop  --)
(-- END DEPTH loop --)
G01 X0000.000 Y0000.000 Z0010.000 F200.0 
G00 Z10 F100 
M2

%

