%

(set preamble)
G21 G90 G64 G17 G40 G49
G21

T9
M6
(set Z saftey position)
G00 Z0010.000 F200.0 

(set center position)
G00 X0000.000 Y0000.000 F200.0 

(------- start shape -------------)

(move Z-axis to start postion near surface)
G00 Z0003.000 F200.0 
(-- Step #001 Z-000.200 --) 
  G01 X0000.000 Y0000.000 F080.0 
  G01 Z-000.200 F050.0 (relative position)
  G01 G90 X0000.000 F080.0 (absolute position) 
  G02 X0006.000 I0006.000 
  G02 X-012.000 I-009.000 
  G02 X0012.000 I0012.000 
  G02 X-018.000 I-015.000 
  G02 X0018.000 I0018.000 
  G02 X-024.000 I-021.000 
  G02 X0024.000 I0024.000 
  G02 X-030.000 I-027.000 
  G02 X0030.000 I0030.000 
  G02 X-036.000 I-033.000 
  G02 X0036.000 I0036.000 
  G02 X-042.000 I-039.000 
  G02 X0042.000 I0042.000 
  G02 X-048.000 I-045.000 
  G02 X0048.000 I0048.000 
  G02 X-054.000 I-051.000 
  G02 X0054.000 I0054.000 
  G02 X-060.000 I-057.000 
  (-- END current depth --)
(-- Step #002 Z-000.200 --) 
  G01 X0000.000 Y0000.000 F080.0 
  G01 G91 Z-000.200 F050.0 (relative position)
  G01 G90 X0000.000 F080.0 (absolute position) 
  G02 X0006.000 I0006.000 
  G02 X-012.000 I-009.000 
  G02 X0012.000 I0012.000 
  G02 X-018.000 I-015.000 
  G02 X0018.000 I0018.000 
  G02 X-024.000 I-021.000 
  G02 X0024.000 I0024.000 
  G02 X-030.000 I-027.000 
  G02 X0030.000 I0030.000 
  G02 X-036.000 I-033.000 
  G02 X0036.000 I0036.000 
  G02 X-042.000 I-039.000 
  G02 X0042.000 I0042.000 
  G02 X-048.000 I-045.000 
  G02 X0048.000 I0048.000 
  G02 X-054.000 I-051.000 
  G02 X0054.000 I0054.000 
  G02 X-060.000 I-057.000 
  (-- END current depth --)
(-- Step #003 Z-000.200 --) 
  G01 X0000.000 Y0000.000 F080.0 
  G01 G91 Z-000.200 F050.0 (relative position)
  G01 G90 X0000.000 F080.0 (absolute position) 
  G02 X0006.000 I0006.000 
  G02 X-012.000 I-009.000 
  G02 X0012.000 I0012.000 
  G02 X-018.000 I-015.000 
  G02 X0018.000 I0018.000 
  G02 X-024.000 I-021.000 
  G02 X0024.000 I0024.000 
  G02 X-030.000 I-027.000 
  G02 X0030.000 I0030.000 
  G02 X-036.000 I-033.000 
  G02 X0036.000 I0036.000 
  G02 X-042.000 I-039.000 
  G02 X0042.000 I0042.000 
  G02 X-048.000 I-045.000 
  G02 X0048.000 I0048.000 
  G02 X-054.000 I-051.000 
  G02 X0054.000 I0054.000 
  G02 X-060.000 I-057.000 
  (-- END current depth --)
(-- Step #004 Z-000.200 --) 
  G01 X0000.000 Y0000.000 F080.0 
  G01 G91 Z-000.200 F050.0 (relative position)
  G01 G90 X0000.000 F080.0 (absolute position) 
  G02 X0006.000 I0006.000 
  G02 X-012.000 I-009.000 
  G02 X0012.000 I0012.000 
  G02 X-018.000 I-015.000 
  G02 X0018.000 I0018.000 
  G02 X-024.000 I-021.000 
  G02 X0024.000 I0024.000 
  G02 X-030.000 I-027.000 
  G02 X0030.000 I0030.000 
  G02 X-036.000 I-033.000 
  G02 X0036.000 I0036.000 
  G02 X-042.000 I-039.000 
  G02 X0042.000 I0042.000 
  G02 X-048.000 I-045.000 
  G02 X0048.000 I0048.000 
  G02 X-054.000 I-051.000 
  G02 X0054.000 I0054.000 
  G02 X-060.000 I-057.000 
  (-- END current depth --)
(-- Step #005 Z-000.200 --) 
  G01 X0000.000 Y0000.000 F080.0 
  G01 G91 Z-000.200 F050.0 (relative position)
  G01 G90 X0000.000 F080.0 (absolute position) 
  G02 X0006.000 I0006.000 
  G02 X-012.000 I-009.000 
  G02 X0012.000 I0012.000 
  G02 X-018.000 I-015.000 
  G02 X0018.000 I0018.000 
  G02 X-024.000 I-021.000 
  G02 X0024.000 I0024.000 
  G02 X-030.000 I-027.000 
  G02 X0030.000 I0030.000 
  G02 X-036.000 I-033.000 
  G02 X0036.000 I0036.000 
  G02 X-042.000 I-039.000 
  G02 X0042.000 I0042.000 
  G02 X-048.000 I-045.000 
  G02 X0048.000 I0048.000 
  G02 X-054.000 I-051.000 
  G02 X0054.000 I0054.000 
  G02 X-060.000 I-057.000 
  (-- END current depth --)
(-- Step #006 Z-000.200 --) 
  G01 X0000.000 Y0000.000 F080.0 
  G01 G91 Z-000.200 F050.0 (relative position)
  G01 G90 X0000.000 F080.0 (absolute position) 
  G02 X0006.000 I0006.000 
  G02 X-012.000 I-009.000 
  G02 X0012.000 I0012.000 
  G02 X-018.000 I-015.000 
  G02 X0018.000 I0018.000 
  G02 X-024.000 I-021.000 
  G02 X0024.000 I0024.000 
  G02 X-030.000 I-027.000 
  G02 X0030.000 I0030.000 
  G02 X-036.000 I-033.000 
  G02 X0036.000 I0036.000 
  G02 X-042.000 I-039.000 
  G02 X0042.000 I0042.000 
  G02 X-048.000 I-045.000 
  G02 X0048.000 I0048.000 
  G02 X-054.000 I-051.000 
  G02 X0054.000 I0054.000 
  G02 X-060.000 I-057.000 
  (-- END current depth --)
(-- Step #007 Z-000.050 --) 
  G01 X0000.000 Y0000.000 F080.0 
  G01 G91 Z-000.050 F050.0 (relative position)
  G01 G90 X0000.000 F080.0 (absolute position) 
  G02 X0006.000 I0006.000 
  G02 X-012.000 I-009.000 
  G02 X0012.000 I0012.000 
  G02 X-018.000 I-015.000 
  G02 X0018.000 I0018.000 
  G02 X-024.000 I-021.000 
  G02 X0024.000 I0024.000 
  G02 X-030.000 I-027.000 
  G02 X0030.000 I0030.000 
  G02 X-036.000 I-033.000 
  G02 X0036.000 I0036.000 
  G02 X-042.000 I-039.000 
  G02 X0042.000 I0042.000 
  G02 X-048.000 I-045.000 
  G02 X0048.000 I0048.000 
  G02 X-054.000 I-051.000 
  G02 X0054.000 I0054.000 
  G02 X-060.000 I-057.000 
  (-- END current depth --)
(-- END --)
G01 Z0010.000 F100.0 
G01 X0000.000 Y0000.000 F100.0 
G00 Z10 F100 
M2

%
