%
(--------------------------)
(          __              )
(  _(\    |@@|             )
( (__/\__ \--/ __          )
(    \___|----|  |   __    )
(        \ }{ /\ )_ / _\   )
(        /\__/\ \__O (__   )
(       (--/\--)    \__/   )
(       _)(  )(_           )
(      `---''---`          )
(    (c) by LunaX 2018     )
(--------------------------)
        

(set preamble)
G21 G90 G64 G17 G40 G49
G21

(set Z saftey position)
G00 Z0010.000 F200.0 

(set center position)
G00 X0000.000 Y0000.000 F200.0 

(------- start shape -------------)

(move Z-axis to start postion near surface)
G00 Z0003.000 F200.0 
(-- Step #001 Z-000.200 --) 
  G01 X0000.000 Y0000.000 F080.0 
  G01 Z-000.200 F050.0 (relative position)
  G01 G90 X0000.000 F080.0 (absolute position) 
  G03 X-006.000 I-006.000 
  G03 X0012.000 I0009.000 
  G03 X-012.000 I-012.000 
  G03 X0018.000 I0015.000 
  G03 X-018.000 I-018.000 
  G03 X0024.000 I0021.000 
  G03 X-024.000 I-024.000 
  G03 X0030.000 I0027.000 
  G03 X-030.000 I-030.000 
  G03 X0036.000 I0033.000 
  G03 X-036.000 I-036.000 
  G03 X0042.000 I0039.000 
  G03 X-042.000 I-042.000 
  G03 X0048.000 I0045.000 
  G03 X-048.000 I-048.000 
  G03 X0054.000 I0051.000 
  G03 X-054.000 I-054.000 
  G03 X0060.000 I0057.000 
  (-- END current depth --)
(-- Step #002 Z-000.200 --) 
  G01 X0000.000 Y0000.000 F080.0 
  G01 G91 Z-000.200 F050.0 (relative position)
  G01 G90 X0000.000 F080.0 (absolute position) 
  G03 X-006.000 I-006.000 
  G03 X0012.000 I0009.000 
  G03 X-012.000 I-012.000 
  G03 X0018.000 I0015.000 
  G03 X-018.000 I-018.000 
  G03 X0024.000 I0021.000 
  G03 X-024.000 I-024.000 
  G03 X0030.000 I0027.000 
  G03 X-030.000 I-030.000 
  G03 X0036.000 I0033.000 
  G03 X-036.000 I-036.000 
  G03 X0042.000 I0039.000 
  G03 X-042.000 I-042.000 
  G03 X0048.000 I0045.000 
  G03 X-048.000 I-048.000 
  G03 X0054.000 I0051.000 
  G03 X-054.000 I-054.000 
  G03 X0060.000 I0057.000 
  (-- END current depth --)
(-- Step #003 Z-000.200 --) 
  G01 X0000.000 Y0000.000 F080.0 
  G01 G91 Z-000.200 F050.0 (relative position)
  G01 G90 X0000.000 F080.0 (absolute position) 
  G03 X-006.000 I-006.000 
  G03 X0012.000 I0009.000 
  G03 X-012.000 I-012.000 
  G03 X0018.000 I0015.000 
  G03 X-018.000 I-018.000 
  G03 X0024.000 I0021.000 
  G03 X-024.000 I-024.000 
  G03 X0030.000 I0027.000 
  G03 X-030.000 I-030.000 
  G03 X0036.000 I0033.000 
  G03 X-036.000 I-036.000 
  G03 X0042.000 I0039.000 
  G03 X-042.000 I-042.000 
  G03 X0048.000 I0045.000 
  G03 X-048.000 I-048.000 
  G03 X0054.000 I0051.000 
  G03 X-054.000 I-054.000 
  G03 X0060.000 I0057.000 
  (-- END current depth --)
(-- Step #004 Z-000.200 --) 
  G01 X0000.000 Y0000.000 F080.0 
  G01 G91 Z-000.200 F050.0 (relative position)
  G01 G90 X0000.000 F080.0 (absolute position) 
  G03 X-006.000 I-006.000 
  G03 X0012.000 I0009.000 
  G03 X-012.000 I-012.000 
  G03 X0018.000 I0015.000 
  G03 X-018.000 I-018.000 
  G03 X0024.000 I0021.000 
  G03 X-024.000 I-024.000 
  G03 X0030.000 I0027.000 
  G03 X-030.000 I-030.000 
  G03 X0036.000 I0033.000 
  G03 X-036.000 I-036.000 
  G03 X0042.000 I0039.000 
  G03 X-042.000 I-042.000 
  G03 X0048.000 I0045.000 
  G03 X-048.000 I-048.000 
  G03 X0054.000 I0051.000 
  G03 X-054.000 I-054.000 
  G03 X0060.000 I0057.000 
  (-- END current depth --)
(-- Step #005 Z-000.200 --) 
  G01 X0000.000 Y0000.000 F080.0 
  G01 G91 Z-000.200 F050.0 (relative position)
  G01 G90 X0000.000 F080.0 (absolute position) 
  G03 X-006.000 I-006.000 
  G03 X0012.000 I0009.000 
  G03 X-012.000 I-012.000 
  G03 X0018.000 I0015.000 
  G03 X-018.000 I-018.000 
  G03 X0024.000 I0021.000 
  G03 X-024.000 I-024.000 
  G03 X0030.000 I0027.000 
  G03 X-030.000 I-030.000 
  G03 X0036.000 I0033.000 
  G03 X-036.000 I-036.000 
  G03 X0042.000 I0039.000 
  G03 X-042.000 I-042.000 
  G03 X0048.000 I0045.000 
  G03 X-048.000 I-048.000 
  G03 X0054.000 I0051.000 
  G03 X-054.000 I-054.000 
  G03 X0060.000 I0057.000 
  (-- END current depth --)
(-- Step #006 Z-000.200 --) 
  G01 X0000.000 Y0000.000 F080.0 
  G01 G91 Z-000.200 F050.0 (relative position)
  G01 G90 X0000.000 F080.0 (absolute position) 
  G03 X-006.000 I-006.000 
  G03 X0012.000 I0009.000 
  G03 X-012.000 I-012.000 
  G03 X0018.000 I0015.000 
  G03 X-018.000 I-018.000 
  G03 X0024.000 I0021.000 
  G03 X-024.000 I-024.000 
  G03 X0030.000 I0027.000 
  G03 X-030.000 I-030.000 
  G03 X0036.000 I0033.000 
  G03 X-036.000 I-036.000 
  G03 X0042.000 I0039.000 
  G03 X-042.000 I-042.000 
  G03 X0048.000 I0045.000 
  G03 X-048.000 I-048.000 
  G03 X0054.000 I0051.000 
  G03 X-054.000 I-054.000 
  G03 X0060.000 I0057.000 
  (-- END current depth --)
(-- Step #007 Z-000.050 --) 
  G01 X0000.000 Y0000.000 F080.0 
  G01 G91 Z-000.050 F050.0 (relative position)
  G01 G90 X0000.000 F080.0 (absolute position) 
  G03 X-006.000 I-006.000 
  G03 X0012.000 I0009.000 
  G03 X-012.000 I-012.000 
  G03 X0018.000 I0015.000 
  G03 X-018.000 I-018.000 
  G03 X0024.000 I0021.000 
  G03 X-024.000 I-024.000 
  G03 X0030.000 I0027.000 
  G03 X-030.000 I-030.000 
  G03 X0036.000 I0033.000 
  G03 X-036.000 I-036.000 
  G03 X0042.000 I0039.000 
  G03 X-042.000 I-042.000 
  G03 X0048.000 I0045.000 
  G03 X-048.000 I-048.000 
  G03 X0054.000 I0051.000 
  G03 X-054.000 I-054.000 
  G03 X0060.000 I0057.000 
  (-- END current depth --)
(-- END --)
G01 Z0010.000 F100.0 
G01 X0000.000 Y0000.000 F100.0 
G00 Z10 F100 
M2

%
