%
(--------------------------)
(          __              )
(  _(\    |@@|             )
( (__/\__ \--/ __          )
(    \___|----|  |   __    )
(        \ }{ /\ )_ / _\   )
(        /\__/\ \__O (__   )
(       (--/\--)    \__/   )
(       _)(  )(_           )
(      `---''---`          )
(    (c) by LunaX 2018     )
(--------------------------)
        

(set preamble)
G21 G90 G64 G17 G40 G49
G21

(set Z saftey position)
G00 Z0010.000 F200.0 

(set center position)
G00 X0000.000 Y0000.000 F200.0 

(------- start shape -------------)

(move Z-axis to start postion near surface)
G00 Z0003.000 F200.0 
G00 X0000.000 Y0000.000 F200.0 

(-- START DEPTH Loop --)
  (-- START Track Loop  --)

  (-- next depth z -000.250 --)
   G01 Z-000.250 F0050.000
   G01 X-003.600 Y0000.000 F0080.000
   G01 X0073.600 Y0000.000 F0080.000
   G01 X0073.600 Y0001.200 F0080.000
   G01 X-003.600 Y0001.200 F0080.000

  (-- next depth z -000.250 --)
   G01 Z-000.250 F0050.000
   G01 X-003.600 Y0001.200 F0080.000
   G01 X0073.600 Y0001.200 F0080.000
   G01 X0073.600 Y0002.400 F0080.000
   G01 X-003.600 Y0002.400 F0080.000

  (-- next depth z -000.250 --)
   G01 Z-000.250 F0050.000
   G01 X-003.600 Y0002.400 F0080.000
   G01 X0073.600 Y0002.400 F0080.000
   G01 X0073.600 Y0003.600 F0080.000
   G01 X-003.600 Y0003.600 F0080.000

  (-- next depth z -000.250 --)
   G01 Z-000.250 F0050.000
   G01 X-003.600 Y0003.600 F0080.000
   G01 X0073.600 Y0003.600 F0080.000
   G01 X0073.600 Y0004.800 F0080.000
   G01 X-003.600 Y0004.800 F0080.000

  (-- next depth z -000.250 --)
   G01 Z-000.250 F0050.000
   G01 X-003.600 Y0004.800 F0080.000
   G01 X0073.600 Y0004.800 F0080.000
   G01 X0073.600 Y0006.000 F0080.000
   G01 X-003.600 Y0006.000 F0080.000

  (-- next depth z -000.250 --)
   G01 Z-000.250 F0050.000
   G01 X-003.600 Y0006.000 F0080.000
   G01 X0073.600 Y0006.000 F0080.000
   G01 X0073.600 Y0007.200 F0080.000
   G01 X-003.600 Y0007.200 F0080.000

  (-- next depth z -000.250 --)
   G01 Z-000.250 F0050.000
   G01 X-003.600 Y0007.200 F0080.000
   G01 X0073.600 Y0007.200 F0080.000
   G01 X0073.600 Y0008.400 F0080.000
   G01 X-003.600 Y0008.400 F0080.000

  (-- next depth z -000.250 --)
   G01 Z-000.250 F0050.000
   G01 X-003.600 Y0008.400 F0080.000
   G01 X0073.600 Y0008.400 F0080.000
   G01 X0073.600 Y0009.600 F0080.000
   G01 X-003.600 Y0009.600 F0080.000

  (-- next depth z -000.250 --)
   G01 Z-000.250 F0050.000
   G01 X-003.600 Y0009.600 F0080.000
   G01 X0073.600 Y0009.600 F0080.000
   G01 X0073.600 Y0010.800 F0080.000
   G01 X-003.600 Y0010.800 F0080.000

  (-- next depth z -000.250 --)
   G01 Z-000.250 F0050.000
   G01 X-003.600 Y0010.800 F0080.000
   G01 X0073.600 Y0010.800 F0080.000
   G01 X0073.600 Y0012.000 F0080.000
   G01 X-003.600 Y0012.000 F0080.000

  (-- next depth z -000.250 --)
   G01 Z-000.250 F0050.000
   G01 X-003.600 Y0012.000 F0080.000
   G01 X0073.600 Y0012.000 F0080.000
   G01 X0073.600 Y0013.200 F0080.000
   G01 X-003.600 Y0013.200 F0080.000

  (-- next depth z -000.250 --)
   G01 Z-000.250 F0050.000
   G01 X-003.600 Y0013.200 F0080.000
   G01 X0073.600 Y0013.200 F0080.000
   G01 X0073.600 Y0014.400 F0080.000
   G01 X-003.600 Y0014.400 F0080.000

  (-- next depth z -000.250 --)
   G01 Z-000.250 F0050.000
   G01 X-003.600 Y0014.400 F0080.000
   G01 X0073.600 Y0014.400 F0080.000
   G01 X0073.600 Y0015.600 F0080.000
   G01 X-003.600 Y0015.600 F0080.000

  (-- next depth z -000.250 --)
   G01 Z-000.250 F0050.000
   G01 X-003.600 Y0015.600 F0080.000
   G01 X0073.600 Y0015.600 F0080.000
   G01 X0073.600 Y0016.800 F0080.000
   G01 X-003.600 Y0016.800 F0080.000

  (-- next depth z -000.250 --)
   G01 Z-000.250 F0050.000
   G01 X-003.600 Y0016.800 F0080.000
   G01 X0073.600 Y0016.800 F0080.000
   G01 X0073.600 Y0018.000 F0080.000
   G01 X-003.600 Y0018.000 F0080.000

  (-- next depth z -000.250 --)
   G01 Z-000.250 F0050.000
   G01 X-003.600 Y0018.000 F0080.000
   G01 X0073.600 Y0018.000 F0080.000
   G01 X0073.600 Y0019.200 F0080.000
   G01 X-003.600 Y0019.200 F0080.000

  (-- next depth z -000.250 --)
   G01 Z-000.250 F0050.000
   G01 X-003.600 Y0019.200 F0080.000
   G01 X0073.600 Y0019.200 F0080.000
   G01 X0073.600 Y0020.400 F0080.000
   G01 X-003.600 Y0020.400 F0080.000

  (-- next depth z -000.250 --)
   G01 Z-000.250 F0050.000
   G01 X-003.600 Y0020.400 F0080.000
   G01 X0073.600 Y0020.400 F0080.000
   G01 X0073.600 Y0021.600 F0080.000
   G01 X-003.600 Y0021.600 F0080.000

  (-- next depth z -000.250 --)
   G01 Z-000.250 F0050.000
   G01 X-003.600 Y0021.600 F0080.000
   G01 X0073.600 Y0021.600 F0080.000
   G01 X0073.600 Y0022.800 F0080.000
   G01 X-003.600 Y0022.800 F0080.000

  (-- next depth z -000.250 --)
   G01 Z-000.250 F0050.000
   G01 X-003.600 Y0022.800 F0080.000
   G01 X0073.600 Y0022.800 F0080.000
   G01 X0073.600 Y0024.000 F0080.000
   G01 X-003.600 Y0024.000 F0080.000

  (-- next depth z -000.250 --)
   G01 Z-000.250 F0050.000
   G01 X-003.600 Y0024.000 F0080.000
   G01 X0073.600 Y0024.000 F0080.000
   G01 X0073.600 Y0025.200 F0080.000
   G01 X-003.600 Y0025.200 F0080.000

  (-- next depth z -000.250 --)
   G01 Z-000.250 F0050.000
   G01 X-003.600 Y0025.200 F0080.000
   G01 X0073.600 Y0025.200 F0080.000
   G01 X0073.600 Y0026.400 F0080.000
   G01 X-003.600 Y0026.400 F0080.000

  (-- next depth z -000.250 --)
   G01 Z-000.250 F0050.000
   G01 X-003.600 Y0026.400 F0080.000
   G01 X0073.600 Y0026.400 F0080.000
   G01 X0073.600 Y0027.600 F0080.000
   G01 X-003.600 Y0027.600 F0080.000

  (-- next depth z -000.250 --)
   G01 Z-000.250 F0050.000
   G01 X-003.600 Y0027.600 F0080.000
   G01 X0073.600 Y0027.600 F0080.000
   G01 X0073.600 Y0028.800 F0080.000
   G01 X-003.600 Y0028.800 F0080.000

  (-- next depth z -000.250 --)
   G01 Z-000.250 F0050.000
   G01 X-003.600 Y0028.800 F0080.000
   G01 X0073.600 Y0028.800 F0080.000
   G01 X0073.600 Y0030.000 F0080.000
   G01 X-003.600 Y0030.000 F0080.000

  (-- next depth z -000.250 --)
   G01 Z-000.250 F0050.000
   G01 X-003.600 Y0030.000 F0080.000
   G01 X0073.600 Y0030.000 F0080.000
   G01 X0073.600 Y0031.200 F0080.000
   G01 X-003.600 Y0031.200 F0080.000

  (-- next depth z -000.250 --)
   G01 Z-000.250 F0050.000
   G01 X-003.600 Y0031.200 F0080.000
   G01 X0073.600 Y0031.200 F0080.000
   G01 X0073.600 Y0032.400 F0080.000
   G01 X-003.600 Y0032.400 F0080.000

  (-- next depth z -000.250 --)
   G01 Z-000.250 F0050.000
   G01 X-003.600 Y0032.400 F0080.000
   G01 X0073.600 Y0032.400 F0080.000
   G01 X0073.600 Y0033.600 F0080.000
   G01 X-003.600 Y0033.600 F0080.000

  (-- next depth z -000.250 --)
   G01 Z-000.250 F0050.000
   G01 X-003.600 Y0033.600 F0080.000
   G01 X0073.600 Y0033.600 F0080.000
   G01 X0073.600 Y0034.800 F0080.000
   G01 X-003.600 Y0034.800 F0080.000

  (-- next depth z -000.250 --)
   G01 Z-000.250 F0050.000
   G01 X-003.600 Y0034.800 F0080.000
   G01 X0073.600 Y0034.800 F0080.000
   G01 X0073.600 Y0036.000 F0080.000
   G01 X-003.600 Y0036.000 F0080.000

  (-- next depth z -000.250 --)
   G01 Z-000.250 F0050.000
   G01 X-003.600 Y0036.000 F0080.000
   G01 X0073.600 Y0036.000 F0080.000
   G01 X0073.600 Y0037.200 F0080.000
   G01 X-003.600 Y0037.200 F0080.000

  (-- next depth z -000.250 --)
   G01 Z-000.250 F0050.000
   G01 X-003.600 Y0037.200 F0080.000
   G01 X0073.600 Y0037.200 F0080.000
   G01 X0073.600 Y0038.400 F0080.000
   G01 X-003.600 Y0038.400 F0080.000

  (-- next depth z -000.250 --)
   G01 Z-000.250 F0050.000
   G01 X-003.600 Y0038.400 F0080.000
   G01 X0073.600 Y0038.400 F0080.000
   G01 X0073.600 Y0039.600 F0080.000
   G01 X-003.600 Y0039.600 F0080.000

  (-- next depth z -000.250 --)
   G01 Z-000.250 F0050.000
   G01 X-003.600 Y0039.600 F0080.000
   G01 X0073.600 Y0039.600 F0080.000
   G01 X0073.600 Y0040.800 F0080.000
   G01 X-003.600 Y0040.800 F0080.000

  (-- next depth z -000.250 --)
   G01 Z-000.250 F0050.000
   G01 X-003.600 Y0040.800 F0080.000
   G01 X0073.600 Y0040.800 F0080.000
   G01 X0073.600 Y0042.000 F0080.000
   G01 X-003.600 Y0042.000 F0080.000

  (-- next depth z -000.250 --)
   G01 Z-000.250 F0050.000
   G01 X-003.600 Y0042.000 F0080.000
   G01 X0073.600 Y0042.000 F0080.000
   G01 X0073.600 Y0043.200 F0080.000
   G01 X-003.600 Y0043.200 F0080.000

  (-- next depth z -000.250 --)
   G01 Z-000.250 F0050.000
   G01 X-003.600 Y0043.200 F0080.000
   G01 X0073.600 Y0043.200 F0080.000
   G01 X0073.600 Y0044.400 F0080.000
   G01 X-003.600 Y0044.400 F0080.000

  (-- next depth z -000.250 --)
   G01 Z-000.250 F0050.000
   G01 X-003.600 Y0044.400 F0080.000
   G01 X0073.600 Y0044.400 F0080.000
   G01 X0073.600 Y0045.600 F0080.000
   G01 X-003.600 Y0045.600 F0080.000

  (-- next depth z -000.250 --)
   G01 Z-000.250 F0050.000
   G01 X-003.600 Y0045.600 F0080.000
   G01 X0073.600 Y0045.600 F0080.000
   G01 X0073.600 Y0046.800 F0080.000
   G01 X-003.600 Y0046.800 F0080.000

  (-- next depth z -000.250 --)
   G01 Z-000.250 F0050.000
   G01 X-003.600 Y0046.800 F0080.000
   G01 X0073.600 Y0046.800 F0080.000
   G01 X0073.600 Y0048.000 F0080.000
   G01 X-003.600 Y0048.000 F0080.000

  (-- next depth z -000.250 --)
   G01 Z-000.250 F0050.000
   G01 X-003.600 Y0048.000 F0080.000
   G01 X0073.600 Y0048.000 F0080.000
   G01 X0073.600 Y0049.200 F0080.000
   G01 X-003.600 Y0049.200 F0080.000

  (-- next depth z -000.250 --)
   G01 Z-000.250 F0050.000
   G01 X-003.600 Y0049.200 F0080.000
   G01 X0073.600 Y0049.200 F0080.000
   G01 X0073.600 Y0050.400 F0080.000
   G01 X-003.600 Y0050.400 F0080.000

  (-- next depth z -000.250 --)
   G01 Z-000.250 F0050.000
   G01 X-003.600 Y0050.400 F0080.000
   G01 X0073.600 Y0050.400 F0080.000
   G01 X0073.600 Y0051.600 F0080.000
   G01 X-003.600 Y0051.600 F0080.000

  (-- next depth z -000.250 --)
   G01 Z-000.250 F0050.000
   G01 X-003.600 Y0051.600 F0080.000
   G01 X0073.600 Y0051.600 F0080.000
   G01 X0073.600 Y0052.800 F0080.000
   G01 X-003.600 Y0052.800 F0080.000

  (-- next depth z -000.250 --)
   G01 Z-000.250 F0050.000
   G01 X-003.600 Y0052.800 F0080.000
   G01 X0073.600 Y0052.800 F0080.000
   G01 X0073.600 Y0054.000 F0080.000
   G01 X-003.600 Y0054.000 F0080.000

  (-- next depth z -000.250 --)
   G01 Z-000.250 F0050.000
   G01 X-003.600 Y0054.000 F0080.000
   G01 X0073.600 Y0054.000 F0080.000
   G01 X0073.600 Y0055.200 F0080.000
   G01 X-003.600 Y0055.200 F0080.000

  (-- next depth z -000.250 --)
   G01 Z-000.250 F0050.000
   G01 X-003.600 Y0055.200 F0080.000
   G01 X0073.600 Y0055.200 F0080.000
   G01 X0073.600 Y0056.400 F0080.000
   G01 X-003.600 Y0056.400 F0080.000

  (-- next depth z -000.250 --)
   G01 Z-000.250 F0050.000
   G01 X-003.600 Y0056.400 F0080.000
   G01 X0073.600 Y0056.400 F0080.000
   G01 X0073.600 Y0057.600 F0080.000
   G01 X-003.600 Y0057.600 F0080.000

  (-- next depth z -000.250 --)
   G01 Z-000.250 F0050.000
   G01 X-003.600 Y0057.600 F0080.000
   G01 X0073.600 Y0057.600 F0080.000
   G01 X0073.600 Y0058.800 F0080.000
   G01 X-003.600 Y0058.800 F0080.000

  (-- next depth z -000.250 --)
   G01 Z-000.250 F0050.000
   G01 X-003.600 Y0058.800 F0080.000
   G01 X0073.600 Y0058.800 F0080.000
   G01 X0073.600 Y0060.000 F0080.000
   G01 X-003.600 Y0060.000 F0080.000

  (-- next depth z -000.250 --)
   G01 Z-000.250 F0050.000
   G01 X-003.600 Y0060.000 F0080.000
   G01 X0073.600 Y0060.000 F0080.000
   G01 X0073.600 Y0061.200 F0080.000
   G01 X-003.600 Y0061.200 F0080.000

  (-- next depth z -000.250 --)
   G01 Z-000.250 F0050.000
   G01 X-003.600 Y0061.200 F0080.000
   G01 X0073.600 Y0061.200 F0080.000
   G01 X0073.600 Y0062.400 F0080.000
   G01 X-003.600 Y0062.400 F0080.000

  (-- next depth z -000.250 --)
   G01 Z-000.250 F0050.000
   G01 X-003.600 Y0062.400 F0080.000
   G01 X0073.600 Y0062.400 F0080.000
   G01 X0073.600 Y0063.600 F0080.000
   G01 X-003.600 Y0063.600 F0080.000

  (-- next depth z -000.250 --)
   G01 Z-000.250 F0050.000
   G01 X-003.600 Y0063.600 F0080.000
   G01 X0073.600 Y0063.600 F0080.000
   G01 X0073.600 Y0064.800 F0080.000
   G01 X-003.600 Y0064.800 F0080.000

  (-- next depth z -000.250 --)
   G01 Z-000.250 F0050.000
   G01 X-003.600 Y0064.800 F0080.000
   G01 X0073.600 Y0064.800 F0080.000
   G01 X0073.600 Y0066.000 F0080.000
   G01 X-003.600 Y0066.000 F0080.000

  (-- next depth z -000.250 --)
   G01 Z-000.250 F0050.000
   G01 X-003.600 Y0066.000 F0080.000
   G01 X0073.600 Y0066.000 F0080.000
   G01 X0073.600 Y0067.200 F0080.000
   G01 X-003.600 Y0067.200 F0080.000

  (-- next depth z -000.250 --)
   G01 Z-000.250 F0050.000
   G01 X-003.600 Y0067.200 F0080.000
   G01 X0073.600 Y0067.200 F0080.000
   G01 X0073.600 Y0068.400 F0080.000
   G01 X-003.600 Y0068.400 F0080.000

  (-- next depth z -000.250 --)
   G01 Z-000.250 F0050.000
   G01 X-003.600 Y0068.400 F0080.000
   G01 X0073.600 Y0068.400 F0080.000
   G01 X0073.600 Y0069.600 F0080.000
   G01 X-003.600 Y0069.600 F0080.000

  (-- next depth z -000.250 --)
   G01 Z-000.250 F0050.000
   G01 X-003.600 Y0069.600 F0080.000
   G01 X0073.600 Y0069.600 F0080.000
   G01 X0073.600 Y0070.800 F0080.000
   G01 X-003.600 Y0070.800 F0080.000

  (-- next depth z -000.250 --)
   G01 Z-000.250 F0050.000
   G01 X-003.600 Y0070.800 F0080.000
   G01 X0073.600 Y0070.800 F0080.000
   G01 X0073.600 Y0072.000 F0080.000
   G01 X-003.600 Y0072.000 F0080.000

  (-- next depth z -000.250 --)
   G01 Z-000.250 F0050.000
   G01 X-003.600 Y0072.000 F0080.000
   G01 X0073.600 Y0072.000 F0080.000
   G01 X0073.600 Y0073.200 F0080.000
   G01 X-003.600 Y0073.200 F0080.000

  (-- next depth z -000.250 --)
   G01 Z-000.250 F0050.000
   G01 X-003.600 Y0073.200 F0080.000
   G01 X0073.600 Y0073.200 F0080.000
   G01 X0073.600 Y0074.400 F0080.000
   G01 X-003.600 Y0074.400 F0080.000

  (-- next depth z -000.250 --)
   G01 Z-000.250 F0050.000
   G01 X-003.600 Y0074.400 F0080.000
   G01 X0073.600 Y0074.400 F0080.000
   G01 X0073.600 Y0075.600 F0080.000
   G01 X-003.600 Y0075.600 F0080.000

  (-- next depth z -000.250 --)
   G01 Z-000.250 F0050.000
   G01 X-003.600 Y0075.600 F0080.000
   G01 X0073.600 Y0075.600 F0080.000
   G01 X0073.600 Y0076.800 F0080.000
   G01 X-003.600 Y0076.800 F0080.000

  (-- next depth z -000.250 --)
   G01 Z-000.250 F0050.000
   G01 X-003.600 Y0076.800 F0080.000
   G01 X0073.600 Y0076.800 F0080.000
   G01 X0073.600 Y0078.000 F0080.000
   G01 X-003.600 Y0078.000 F0080.000

  (-- next depth z -000.250 --)
   G01 Z-000.250 F0050.000
   G01 X-003.600 Y0078.000 F0080.000
   G01 X0073.600 Y0078.000 F0080.000
   G01 X0073.600 Y0079.200 F0080.000
   G01 X-003.600 Y0079.200 F0080.000

  (-- next depth z -000.250 --)
   G01 Z-000.250 F0050.000
   G01 X-003.600 Y0079.200 F0080.000
   G01 X0073.600 Y0079.200 F0080.000
   G01 X0073.600 Y0080.400 F0080.000
   G01 X-003.600 Y0080.400 F0080.000

  (-- next depth z -000.250 --)
   G01 Z-000.250 F0050.000
   G01 X-003.600 Y0080.400 F0080.000
   G01 X0073.600 Y0080.400 F0080.000
   G01 X0073.600 Y0081.600 F0080.000
   G01 X-003.600 Y0081.600 F0080.000

  (-- next depth z -000.250 --)
   G01 Z-000.250 F0050.000
   G01 X-003.600 Y0081.600 F0080.000
   G01 X0073.600 Y0081.600 F0080.000
   G01 X0073.600 Y0082.800 F0080.000
   G01 X-003.600 Y0082.800 F0080.000

  (-- next depth z -000.250 --)
   G01 Z-000.250 F0050.000
   G01 X-003.600 Y0082.800 F0080.000
   G01 X0073.600 Y0082.800 F0080.000
   G01 X0073.600 Y0084.000 F0080.000
   G01 X-003.600 Y0084.000 F0080.000

  (-- next depth z -000.250 --)
   G01 Z-000.250 F0050.000
   G01 X-003.600 Y0084.000 F0080.000
   G01 X0073.600 Y0084.000 F0080.000
   G01 X0073.600 Y0085.200 F0080.000
   G01 X-003.600 Y0085.200 F0080.000

  (-- next depth z -000.250 --)
   G01 Z-000.250 F0050.000
   G01 X-003.600 Y0085.200 F0080.000
   G01 X0073.600 Y0085.200 F0080.000
   G01 X0073.600 Y0086.400 F0080.000
   G01 X-003.600 Y0086.400 F0080.000

  (-- next depth z -000.250 --)
   G01 Z-000.250 F0050.000
   G01 X-003.600 Y0086.400 F0080.000
   G01 X0073.600 Y0086.400 F0080.000
   G01 X0073.600 Y0087.600 F0080.000
   G01 X-003.600 Y0087.600 F0080.000

  (-- next depth z -000.250 --)
   G01 Z-000.250 F0050.000
   G01 X-003.600 Y0087.600 F0080.000
   G01 X0073.600 Y0087.600 F0080.000
   G01 X0073.600 Y0088.800 F0080.000
   G01 X-003.600 Y0088.800 F0080.000

  (-- next depth z -000.250 --)
   G01 Z-000.250 F0050.000
   G01 X-003.600 Y0088.800 F0080.000
   G01 X0073.600 Y0088.800 F0080.000
   G01 X0073.600 Y0090.000 F0080.000
   G01 X-003.600 Y0090.000 F0080.000

  (-- next depth z -000.250 --)
   G01 Z-000.250 F0050.000
   G01 X-003.600 Y0090.000 F0080.000
   G01 X0073.600 Y0090.000 F0080.000
   G01 X0073.600 Y0091.200 F0080.000
   G01 X-003.600 Y0091.200 F0080.000

  (-- next depth z -000.250 --)
   G01 Z-000.250 F0050.000
   G01 X-003.600 Y0091.200 F0080.000
   G01 X0073.600 Y0091.200 F0080.000
   G01 X0073.600 Y0092.400 F0080.000
   G01 X-003.600 Y0092.400 F0080.000

  (-- next depth z -000.250 --)
   G01 Z-000.250 F0050.000
   G01 X-003.600 Y0092.400 F0080.000
   G01 X0073.600 Y0092.400 F0080.000
   G01 X0073.600 Y0093.600 F0080.000
   G01 X-003.600 Y0093.600 F0080.000

  (-- next depth z -000.250 --)
   G01 Z-000.250 F0050.000
   G01 X-003.600 Y0093.600 F0080.000
   G01 X0073.600 Y0093.600 F0080.000
   G01 X0073.600 Y0094.800 F0080.000
   G01 X-003.600 Y0094.800 F0080.000

  (-- next depth z -000.250 --)
   G01 Z-000.250 F0050.000
   G01 X-003.600 Y0094.800 F0080.000
   G01 X0073.600 Y0094.800 F0080.000
   G01 X0073.600 Y0096.000 F0080.000
   G01 X-003.600 Y0096.000 F0080.000

  (-- next depth z -000.250 --)
   G01 Z-000.250 F0050.000
   G01 X-003.600 Y0096.000 F0080.000
   G01 X0073.600 Y0096.000 F0080.000
   G01 X0073.600 Y0097.200 F0080.000
   G01 X-003.600 Y0097.200 F0080.000

  (-- next depth z -000.250 --)
   G01 Z-000.250 F0050.000
   G01 X-003.600 Y0097.200 F0080.000
   G01 X0073.600 Y0097.200 F0080.000
   G01 X0073.600 Y0098.400 F0080.000
   G01 X-003.600 Y0098.400 F0080.000

  (-- next depth z -000.250 --)
   G01 Z-000.250 F0050.000
   G01 X-003.600 Y0098.400 F0080.000
   G01 X0073.600 Y0098.400 F0080.000
   G01 X0073.600 Y0099.600 F0080.000
   G01 X-003.600 Y0099.600 F0080.000

  (-- next depth z -000.250 --)
   G01 Z-000.250 F0050.000
   G01 X-003.600 Y0099.600 F0080.000
   G01 X0073.600 Y0099.600 F0080.000
   G01 X0073.600 Y0100.800 F0080.000
   G01 X-003.600 Y0100.800 F0080.000

  (-- next depth z -000.250 --)
   G01 Z-000.250 F0050.000
   G01 X-003.600 Y0100.800 F0080.000
   G01 X0073.600 Y0100.800 F0080.000
   G01 X0073.600 Y0102.000 F0080.000
   G01 X-003.600 Y0102.000 F0080.000
  (-- END Track Loop  --)
  (-- START Track Loop  --)

  (-- next depth z -000.500 --)
   G01 Z-000.500 F0050.000
   G01 X-003.600 Y0000.000 F0080.000
   G01 X0073.600 Y0000.000 F0080.000
   G01 X0073.600 Y0001.200 F0080.000
   G01 X-003.600 Y0001.200 F0080.000

  (-- next depth z -000.500 --)
   G01 Z-000.500 F0050.000
   G01 X-003.600 Y0001.200 F0080.000
   G01 X0073.600 Y0001.200 F0080.000
   G01 X0073.600 Y0002.400 F0080.000
   G01 X-003.600 Y0002.400 F0080.000

  (-- next depth z -000.500 --)
   G01 Z-000.500 F0050.000
   G01 X-003.600 Y0002.400 F0080.000
   G01 X0073.600 Y0002.400 F0080.000
   G01 X0073.600 Y0003.600 F0080.000
   G01 X-003.600 Y0003.600 F0080.000

  (-- next depth z -000.500 --)
   G01 Z-000.500 F0050.000
   G01 X-003.600 Y0003.600 F0080.000
   G01 X0073.600 Y0003.600 F0080.000
   G01 X0073.600 Y0004.800 F0080.000
   G01 X-003.600 Y0004.800 F0080.000

  (-- next depth z -000.500 --)
   G01 Z-000.500 F0050.000
   G01 X-003.600 Y0004.800 F0080.000
   G01 X0073.600 Y0004.800 F0080.000
   G01 X0073.600 Y0006.000 F0080.000
   G01 X-003.600 Y0006.000 F0080.000

  (-- next depth z -000.500 --)
   G01 Z-000.500 F0050.000
   G01 X-003.600 Y0006.000 F0080.000
   G01 X0073.600 Y0006.000 F0080.000
   G01 X0073.600 Y0007.200 F0080.000
   G01 X-003.600 Y0007.200 F0080.000

  (-- next depth z -000.500 --)
   G01 Z-000.500 F0050.000
   G01 X-003.600 Y0007.200 F0080.000
   G01 X0073.600 Y0007.200 F0080.000
   G01 X0073.600 Y0008.400 F0080.000
   G01 X-003.600 Y0008.400 F0080.000

  (-- next depth z -000.500 --)
   G01 Z-000.500 F0050.000
   G01 X-003.600 Y0008.400 F0080.000
   G01 X0073.600 Y0008.400 F0080.000
   G01 X0073.600 Y0009.600 F0080.000
   G01 X-003.600 Y0009.600 F0080.000

  (-- next depth z -000.500 --)
   G01 Z-000.500 F0050.000
   G01 X-003.600 Y0009.600 F0080.000
   G01 X0073.600 Y0009.600 F0080.000
   G01 X0073.600 Y0010.800 F0080.000
   G01 X-003.600 Y0010.800 F0080.000

  (-- next depth z -000.500 --)
   G01 Z-000.500 F0050.000
   G01 X-003.600 Y0010.800 F0080.000
   G01 X0073.600 Y0010.800 F0080.000
   G01 X0073.600 Y0012.000 F0080.000
   G01 X-003.600 Y0012.000 F0080.000

  (-- next depth z -000.500 --)
   G01 Z-000.500 F0050.000
   G01 X-003.600 Y0012.000 F0080.000
   G01 X0073.600 Y0012.000 F0080.000
   G01 X0073.600 Y0013.200 F0080.000
   G01 X-003.600 Y0013.200 F0080.000

  (-- next depth z -000.500 --)
   G01 Z-000.500 F0050.000
   G01 X-003.600 Y0013.200 F0080.000
   G01 X0073.600 Y0013.200 F0080.000
   G01 X0073.600 Y0014.400 F0080.000
   G01 X-003.600 Y0014.400 F0080.000

  (-- next depth z -000.500 --)
   G01 Z-000.500 F0050.000
   G01 X-003.600 Y0014.400 F0080.000
   G01 X0073.600 Y0014.400 F0080.000
   G01 X0073.600 Y0015.600 F0080.000
   G01 X-003.600 Y0015.600 F0080.000

  (-- next depth z -000.500 --)
   G01 Z-000.500 F0050.000
   G01 X-003.600 Y0015.600 F0080.000
   G01 X0073.600 Y0015.600 F0080.000
   G01 X0073.600 Y0016.800 F0080.000
   G01 X-003.600 Y0016.800 F0080.000

  (-- next depth z -000.500 --)
   G01 Z-000.500 F0050.000
   G01 X-003.600 Y0016.800 F0080.000
   G01 X0073.600 Y0016.800 F0080.000
   G01 X0073.600 Y0018.000 F0080.000
   G01 X-003.600 Y0018.000 F0080.000

  (-- next depth z -000.500 --)
   G01 Z-000.500 F0050.000
   G01 X-003.600 Y0018.000 F0080.000
   G01 X0073.600 Y0018.000 F0080.000
   G01 X0073.600 Y0019.200 F0080.000
   G01 X-003.600 Y0019.200 F0080.000

  (-- next depth z -000.500 --)
   G01 Z-000.500 F0050.000
   G01 X-003.600 Y0019.200 F0080.000
   G01 X0073.600 Y0019.200 F0080.000
   G01 X0073.600 Y0020.400 F0080.000
   G01 X-003.600 Y0020.400 F0080.000

  (-- next depth z -000.500 --)
   G01 Z-000.500 F0050.000
   G01 X-003.600 Y0020.400 F0080.000
   G01 X0073.600 Y0020.400 F0080.000
   G01 X0073.600 Y0021.600 F0080.000
   G01 X-003.600 Y0021.600 F0080.000

  (-- next depth z -000.500 --)
   G01 Z-000.500 F0050.000
   G01 X-003.600 Y0021.600 F0080.000
   G01 X0073.600 Y0021.600 F0080.000
   G01 X0073.600 Y0022.800 F0080.000
   G01 X-003.600 Y0022.800 F0080.000

  (-- next depth z -000.500 --)
   G01 Z-000.500 F0050.000
   G01 X-003.600 Y0022.800 F0080.000
   G01 X0073.600 Y0022.800 F0080.000
   G01 X0073.600 Y0024.000 F0080.000
   G01 X-003.600 Y0024.000 F0080.000

  (-- next depth z -000.500 --)
   G01 Z-000.500 F0050.000
   G01 X-003.600 Y0024.000 F0080.000
   G01 X0073.600 Y0024.000 F0080.000
   G01 X0073.600 Y0025.200 F0080.000
   G01 X-003.600 Y0025.200 F0080.000

  (-- next depth z -000.500 --)
   G01 Z-000.500 F0050.000
   G01 X-003.600 Y0025.200 F0080.000
   G01 X0073.600 Y0025.200 F0080.000
   G01 X0073.600 Y0026.400 F0080.000
   G01 X-003.600 Y0026.400 F0080.000

  (-- next depth z -000.500 --)
   G01 Z-000.500 F0050.000
   G01 X-003.600 Y0026.400 F0080.000
   G01 X0073.600 Y0026.400 F0080.000
   G01 X0073.600 Y0027.600 F0080.000
   G01 X-003.600 Y0027.600 F0080.000

  (-- next depth z -000.500 --)
   G01 Z-000.500 F0050.000
   G01 X-003.600 Y0027.600 F0080.000
   G01 X0073.600 Y0027.600 F0080.000
   G01 X0073.600 Y0028.800 F0080.000
   G01 X-003.600 Y0028.800 F0080.000

  (-- next depth z -000.500 --)
   G01 Z-000.500 F0050.000
   G01 X-003.600 Y0028.800 F0080.000
   G01 X0073.600 Y0028.800 F0080.000
   G01 X0073.600 Y0030.000 F0080.000
   G01 X-003.600 Y0030.000 F0080.000

  (-- next depth z -000.500 --)
   G01 Z-000.500 F0050.000
   G01 X-003.600 Y0030.000 F0080.000
   G01 X0073.600 Y0030.000 F0080.000
   G01 X0073.600 Y0031.200 F0080.000
   G01 X-003.600 Y0031.200 F0080.000

  (-- next depth z -000.500 --)
   G01 Z-000.500 F0050.000
   G01 X-003.600 Y0031.200 F0080.000
   G01 X0073.600 Y0031.200 F0080.000
   G01 X0073.600 Y0032.400 F0080.000
   G01 X-003.600 Y0032.400 F0080.000

  (-- next depth z -000.500 --)
   G01 Z-000.500 F0050.000
   G01 X-003.600 Y0032.400 F0080.000
   G01 X0073.600 Y0032.400 F0080.000
   G01 X0073.600 Y0033.600 F0080.000
   G01 X-003.600 Y0033.600 F0080.000

  (-- next depth z -000.500 --)
   G01 Z-000.500 F0050.000
   G01 X-003.600 Y0033.600 F0080.000
   G01 X0073.600 Y0033.600 F0080.000
   G01 X0073.600 Y0034.800 F0080.000
   G01 X-003.600 Y0034.800 F0080.000

  (-- next depth z -000.500 --)
   G01 Z-000.500 F0050.000
   G01 X-003.600 Y0034.800 F0080.000
   G01 X0073.600 Y0034.800 F0080.000
   G01 X0073.600 Y0036.000 F0080.000
   G01 X-003.600 Y0036.000 F0080.000

  (-- next depth z -000.500 --)
   G01 Z-000.500 F0050.000
   G01 X-003.600 Y0036.000 F0080.000
   G01 X0073.600 Y0036.000 F0080.000
   G01 X0073.600 Y0037.200 F0080.000
   G01 X-003.600 Y0037.200 F0080.000

  (-- next depth z -000.500 --)
   G01 Z-000.500 F0050.000
   G01 X-003.600 Y0037.200 F0080.000
   G01 X0073.600 Y0037.200 F0080.000
   G01 X0073.600 Y0038.400 F0080.000
   G01 X-003.600 Y0038.400 F0080.000

  (-- next depth z -000.500 --)
   G01 Z-000.500 F0050.000
   G01 X-003.600 Y0038.400 F0080.000
   G01 X0073.600 Y0038.400 F0080.000
   G01 X0073.600 Y0039.600 F0080.000
   G01 X-003.600 Y0039.600 F0080.000

  (-- next depth z -000.500 --)
   G01 Z-000.500 F0050.000
   G01 X-003.600 Y0039.600 F0080.000
   G01 X0073.600 Y0039.600 F0080.000
   G01 X0073.600 Y0040.800 F0080.000
   G01 X-003.600 Y0040.800 F0080.000

  (-- next depth z -000.500 --)
   G01 Z-000.500 F0050.000
   G01 X-003.600 Y0040.800 F0080.000
   G01 X0073.600 Y0040.800 F0080.000
   G01 X0073.600 Y0042.000 F0080.000
   G01 X-003.600 Y0042.000 F0080.000

  (-- next depth z -000.500 --)
   G01 Z-000.500 F0050.000
   G01 X-003.600 Y0042.000 F0080.000
   G01 X0073.600 Y0042.000 F0080.000
   G01 X0073.600 Y0043.200 F0080.000
   G01 X-003.600 Y0043.200 F0080.000

  (-- next depth z -000.500 --)
   G01 Z-000.500 F0050.000
   G01 X-003.600 Y0043.200 F0080.000
   G01 X0073.600 Y0043.200 F0080.000
   G01 X0073.600 Y0044.400 F0080.000
   G01 X-003.600 Y0044.400 F0080.000

  (-- next depth z -000.500 --)
   G01 Z-000.500 F0050.000
   G01 X-003.600 Y0044.400 F0080.000
   G01 X0073.600 Y0044.400 F0080.000
   G01 X0073.600 Y0045.600 F0080.000
   G01 X-003.600 Y0045.600 F0080.000

  (-- next depth z -000.500 --)
   G01 Z-000.500 F0050.000
   G01 X-003.600 Y0045.600 F0080.000
   G01 X0073.600 Y0045.600 F0080.000
   G01 X0073.600 Y0046.800 F0080.000
   G01 X-003.600 Y0046.800 F0080.000

  (-- next depth z -000.500 --)
   G01 Z-000.500 F0050.000
   G01 X-003.600 Y0046.800 F0080.000
   G01 X0073.600 Y0046.800 F0080.000
   G01 X0073.600 Y0048.000 F0080.000
   G01 X-003.600 Y0048.000 F0080.000

  (-- next depth z -000.500 --)
   G01 Z-000.500 F0050.000
   G01 X-003.600 Y0048.000 F0080.000
   G01 X0073.600 Y0048.000 F0080.000
   G01 X0073.600 Y0049.200 F0080.000
   G01 X-003.600 Y0049.200 F0080.000

  (-- next depth z -000.500 --)
   G01 Z-000.500 F0050.000
   G01 X-003.600 Y0049.200 F0080.000
   G01 X0073.600 Y0049.200 F0080.000
   G01 X0073.600 Y0050.400 F0080.000
   G01 X-003.600 Y0050.400 F0080.000

  (-- next depth z -000.500 --)
   G01 Z-000.500 F0050.000
   G01 X-003.600 Y0050.400 F0080.000
   G01 X0073.600 Y0050.400 F0080.000
   G01 X0073.600 Y0051.600 F0080.000
   G01 X-003.600 Y0051.600 F0080.000

  (-- next depth z -000.500 --)
   G01 Z-000.500 F0050.000
   G01 X-003.600 Y0051.600 F0080.000
   G01 X0073.600 Y0051.600 F0080.000
   G01 X0073.600 Y0052.800 F0080.000
   G01 X-003.600 Y0052.800 F0080.000

  (-- next depth z -000.500 --)
   G01 Z-000.500 F0050.000
   G01 X-003.600 Y0052.800 F0080.000
   G01 X0073.600 Y0052.800 F0080.000
   G01 X0073.600 Y0054.000 F0080.000
   G01 X-003.600 Y0054.000 F0080.000

  (-- next depth z -000.500 --)
   G01 Z-000.500 F0050.000
   G01 X-003.600 Y0054.000 F0080.000
   G01 X0073.600 Y0054.000 F0080.000
   G01 X0073.600 Y0055.200 F0080.000
   G01 X-003.600 Y0055.200 F0080.000

  (-- next depth z -000.500 --)
   G01 Z-000.500 F0050.000
   G01 X-003.600 Y0055.200 F0080.000
   G01 X0073.600 Y0055.200 F0080.000
   G01 X0073.600 Y0056.400 F0080.000
   G01 X-003.600 Y0056.400 F0080.000

  (-- next depth z -000.500 --)
   G01 Z-000.500 F0050.000
   G01 X-003.600 Y0056.400 F0080.000
   G01 X0073.600 Y0056.400 F0080.000
   G01 X0073.600 Y0057.600 F0080.000
   G01 X-003.600 Y0057.600 F0080.000

  (-- next depth z -000.500 --)
   G01 Z-000.500 F0050.000
   G01 X-003.600 Y0057.600 F0080.000
   G01 X0073.600 Y0057.600 F0080.000
   G01 X0073.600 Y0058.800 F0080.000
   G01 X-003.600 Y0058.800 F0080.000

  (-- next depth z -000.500 --)
   G01 Z-000.500 F0050.000
   G01 X-003.600 Y0058.800 F0080.000
   G01 X0073.600 Y0058.800 F0080.000
   G01 X0073.600 Y0060.000 F0080.000
   G01 X-003.600 Y0060.000 F0080.000

  (-- next depth z -000.500 --)
   G01 Z-000.500 F0050.000
   G01 X-003.600 Y0060.000 F0080.000
   G01 X0073.600 Y0060.000 F0080.000
   G01 X0073.600 Y0061.200 F0080.000
   G01 X-003.600 Y0061.200 F0080.000

  (-- next depth z -000.500 --)
   G01 Z-000.500 F0050.000
   G01 X-003.600 Y0061.200 F0080.000
   G01 X0073.600 Y0061.200 F0080.000
   G01 X0073.600 Y0062.400 F0080.000
   G01 X-003.600 Y0062.400 F0080.000

  (-- next depth z -000.500 --)
   G01 Z-000.500 F0050.000
   G01 X-003.600 Y0062.400 F0080.000
   G01 X0073.600 Y0062.400 F0080.000
   G01 X0073.600 Y0063.600 F0080.000
   G01 X-003.600 Y0063.600 F0080.000

  (-- next depth z -000.500 --)
   G01 Z-000.500 F0050.000
   G01 X-003.600 Y0063.600 F0080.000
   G01 X0073.600 Y0063.600 F0080.000
   G01 X0073.600 Y0064.800 F0080.000
   G01 X-003.600 Y0064.800 F0080.000

  (-- next depth z -000.500 --)
   G01 Z-000.500 F0050.000
   G01 X-003.600 Y0064.800 F0080.000
   G01 X0073.600 Y0064.800 F0080.000
   G01 X0073.600 Y0066.000 F0080.000
   G01 X-003.600 Y0066.000 F0080.000

  (-- next depth z -000.500 --)
   G01 Z-000.500 F0050.000
   G01 X-003.600 Y0066.000 F0080.000
   G01 X0073.600 Y0066.000 F0080.000
   G01 X0073.600 Y0067.200 F0080.000
   G01 X-003.600 Y0067.200 F0080.000

  (-- next depth z -000.500 --)
   G01 Z-000.500 F0050.000
   G01 X-003.600 Y0067.200 F0080.000
   G01 X0073.600 Y0067.200 F0080.000
   G01 X0073.600 Y0068.400 F0080.000
   G01 X-003.600 Y0068.400 F0080.000

  (-- next depth z -000.500 --)
   G01 Z-000.500 F0050.000
   G01 X-003.600 Y0068.400 F0080.000
   G01 X0073.600 Y0068.400 F0080.000
   G01 X0073.600 Y0069.600 F0080.000
   G01 X-003.600 Y0069.600 F0080.000

  (-- next depth z -000.500 --)
   G01 Z-000.500 F0050.000
   G01 X-003.600 Y0069.600 F0080.000
   G01 X0073.600 Y0069.600 F0080.000
   G01 X0073.600 Y0070.800 F0080.000
   G01 X-003.600 Y0070.800 F0080.000

  (-- next depth z -000.500 --)
   G01 Z-000.500 F0050.000
   G01 X-003.600 Y0070.800 F0080.000
   G01 X0073.600 Y0070.800 F0080.000
   G01 X0073.600 Y0072.000 F0080.000
   G01 X-003.600 Y0072.000 F0080.000

  (-- next depth z -000.500 --)
   G01 Z-000.500 F0050.000
   G01 X-003.600 Y0072.000 F0080.000
   G01 X0073.600 Y0072.000 F0080.000
   G01 X0073.600 Y0073.200 F0080.000
   G01 X-003.600 Y0073.200 F0080.000

  (-- next depth z -000.500 --)
   G01 Z-000.500 F0050.000
   G01 X-003.600 Y0073.200 F0080.000
   G01 X0073.600 Y0073.200 F0080.000
   G01 X0073.600 Y0074.400 F0080.000
   G01 X-003.600 Y0074.400 F0080.000

  (-- next depth z -000.500 --)
   G01 Z-000.500 F0050.000
   G01 X-003.600 Y0074.400 F0080.000
   G01 X0073.600 Y0074.400 F0080.000
   G01 X0073.600 Y0075.600 F0080.000
   G01 X-003.600 Y0075.600 F0080.000

  (-- next depth z -000.500 --)
   G01 Z-000.500 F0050.000
   G01 X-003.600 Y0075.600 F0080.000
   G01 X0073.600 Y0075.600 F0080.000
   G01 X0073.600 Y0076.800 F0080.000
   G01 X-003.600 Y0076.800 F0080.000

  (-- next depth z -000.500 --)
   G01 Z-000.500 F0050.000
   G01 X-003.600 Y0076.800 F0080.000
   G01 X0073.600 Y0076.800 F0080.000
   G01 X0073.600 Y0078.000 F0080.000
   G01 X-003.600 Y0078.000 F0080.000

  (-- next depth z -000.500 --)
   G01 Z-000.500 F0050.000
   G01 X-003.600 Y0078.000 F0080.000
   G01 X0073.600 Y0078.000 F0080.000
   G01 X0073.600 Y0079.200 F0080.000
   G01 X-003.600 Y0079.200 F0080.000

  (-- next depth z -000.500 --)
   G01 Z-000.500 F0050.000
   G01 X-003.600 Y0079.200 F0080.000
   G01 X0073.600 Y0079.200 F0080.000
   G01 X0073.600 Y0080.400 F0080.000
   G01 X-003.600 Y0080.400 F0080.000

  (-- next depth z -000.500 --)
   G01 Z-000.500 F0050.000
   G01 X-003.600 Y0080.400 F0080.000
   G01 X0073.600 Y0080.400 F0080.000
   G01 X0073.600 Y0081.600 F0080.000
   G01 X-003.600 Y0081.600 F0080.000

  (-- next depth z -000.500 --)
   G01 Z-000.500 F0050.000
   G01 X-003.600 Y0081.600 F0080.000
   G01 X0073.600 Y0081.600 F0080.000
   G01 X0073.600 Y0082.800 F0080.000
   G01 X-003.600 Y0082.800 F0080.000

  (-- next depth z -000.500 --)
   G01 Z-000.500 F0050.000
   G01 X-003.600 Y0082.800 F0080.000
   G01 X0073.600 Y0082.800 F0080.000
   G01 X0073.600 Y0084.000 F0080.000
   G01 X-003.600 Y0084.000 F0080.000

  (-- next depth z -000.500 --)
   G01 Z-000.500 F0050.000
   G01 X-003.600 Y0084.000 F0080.000
   G01 X0073.600 Y0084.000 F0080.000
   G01 X0073.600 Y0085.200 F0080.000
   G01 X-003.600 Y0085.200 F0080.000

  (-- next depth z -000.500 --)
   G01 Z-000.500 F0050.000
   G01 X-003.600 Y0085.200 F0080.000
   G01 X0073.600 Y0085.200 F0080.000
   G01 X0073.600 Y0086.400 F0080.000
   G01 X-003.600 Y0086.400 F0080.000

  (-- next depth z -000.500 --)
   G01 Z-000.500 F0050.000
   G01 X-003.600 Y0086.400 F0080.000
   G01 X0073.600 Y0086.400 F0080.000
   G01 X0073.600 Y0087.600 F0080.000
   G01 X-003.600 Y0087.600 F0080.000

  (-- next depth z -000.500 --)
   G01 Z-000.500 F0050.000
   G01 X-003.600 Y0087.600 F0080.000
   G01 X0073.600 Y0087.600 F0080.000
   G01 X0073.600 Y0088.800 F0080.000
   G01 X-003.600 Y0088.800 F0080.000

  (-- next depth z -000.500 --)
   G01 Z-000.500 F0050.000
   G01 X-003.600 Y0088.800 F0080.000
   G01 X0073.600 Y0088.800 F0080.000
   G01 X0073.600 Y0090.000 F0080.000
   G01 X-003.600 Y0090.000 F0080.000

  (-- next depth z -000.500 --)
   G01 Z-000.500 F0050.000
   G01 X-003.600 Y0090.000 F0080.000
   G01 X0073.600 Y0090.000 F0080.000
   G01 X0073.600 Y0091.200 F0080.000
   G01 X-003.600 Y0091.200 F0080.000

  (-- next depth z -000.500 --)
   G01 Z-000.500 F0050.000
   G01 X-003.600 Y0091.200 F0080.000
   G01 X0073.600 Y0091.200 F0080.000
   G01 X0073.600 Y0092.400 F0080.000
   G01 X-003.600 Y0092.400 F0080.000

  (-- next depth z -000.500 --)
   G01 Z-000.500 F0050.000
   G01 X-003.600 Y0092.400 F0080.000
   G01 X0073.600 Y0092.400 F0080.000
   G01 X0073.600 Y0093.600 F0080.000
   G01 X-003.600 Y0093.600 F0080.000

  (-- next depth z -000.500 --)
   G01 Z-000.500 F0050.000
   G01 X-003.600 Y0093.600 F0080.000
   G01 X0073.600 Y0093.600 F0080.000
   G01 X0073.600 Y0094.800 F0080.000
   G01 X-003.600 Y0094.800 F0080.000

  (-- next depth z -000.500 --)
   G01 Z-000.500 F0050.000
   G01 X-003.600 Y0094.800 F0080.000
   G01 X0073.600 Y0094.800 F0080.000
   G01 X0073.600 Y0096.000 F0080.000
   G01 X-003.600 Y0096.000 F0080.000

  (-- next depth z -000.500 --)
   G01 Z-000.500 F0050.000
   G01 X-003.600 Y0096.000 F0080.000
   G01 X0073.600 Y0096.000 F0080.000
   G01 X0073.600 Y0097.200 F0080.000
   G01 X-003.600 Y0097.200 F0080.000

  (-- next depth z -000.500 --)
   G01 Z-000.500 F0050.000
   G01 X-003.600 Y0097.200 F0080.000
   G01 X0073.600 Y0097.200 F0080.000
   G01 X0073.600 Y0098.400 F0080.000
   G01 X-003.600 Y0098.400 F0080.000

  (-- next depth z -000.500 --)
   G01 Z-000.500 F0050.000
   G01 X-003.600 Y0098.400 F0080.000
   G01 X0073.600 Y0098.400 F0080.000
   G01 X0073.600 Y0099.600 F0080.000
   G01 X-003.600 Y0099.600 F0080.000

  (-- next depth z -000.500 --)
   G01 Z-000.500 F0050.000
   G01 X-003.600 Y0099.600 F0080.000
   G01 X0073.600 Y0099.600 F0080.000
   G01 X0073.600 Y0100.800 F0080.000
   G01 X-003.600 Y0100.800 F0080.000

  (-- next depth z -000.500 --)
   G01 Z-000.500 F0050.000
   G01 X-003.600 Y0100.800 F0080.000
   G01 X0073.600 Y0100.800 F0080.000
   G01 X0073.600 Y0102.000 F0080.000
   G01 X-003.600 Y0102.000 F0080.000
  (-- END Track Loop  --)
  (-- START Track Loop  --)

  (-- next depth z -000.750 --)
   G01 Z-000.750 F0050.000
   G01 X-003.600 Y0000.000 F0080.000
   G01 X0073.600 Y0000.000 F0080.000
   G01 X0073.600 Y0001.200 F0080.000
   G01 X-003.600 Y0001.200 F0080.000

  (-- next depth z -000.750 --)
   G01 Z-000.750 F0050.000
   G01 X-003.600 Y0001.200 F0080.000
   G01 X0073.600 Y0001.200 F0080.000
   G01 X0073.600 Y0002.400 F0080.000
   G01 X-003.600 Y0002.400 F0080.000

  (-- next depth z -000.750 --)
   G01 Z-000.750 F0050.000
   G01 X-003.600 Y0002.400 F0080.000
   G01 X0073.600 Y0002.400 F0080.000
   G01 X0073.600 Y0003.600 F0080.000
   G01 X-003.600 Y0003.600 F0080.000

  (-- next depth z -000.750 --)
   G01 Z-000.750 F0050.000
   G01 X-003.600 Y0003.600 F0080.000
   G01 X0073.600 Y0003.600 F0080.000
   G01 X0073.600 Y0004.800 F0080.000
   G01 X-003.600 Y0004.800 F0080.000

  (-- next depth z -000.750 --)
   G01 Z-000.750 F0050.000
   G01 X-003.600 Y0004.800 F0080.000
   G01 X0073.600 Y0004.800 F0080.000
   G01 X0073.600 Y0006.000 F0080.000
   G01 X-003.600 Y0006.000 F0080.000

  (-- next depth z -000.750 --)
   G01 Z-000.750 F0050.000
   G01 X-003.600 Y0006.000 F0080.000
   G01 X0073.600 Y0006.000 F0080.000
   G01 X0073.600 Y0007.200 F0080.000
   G01 X-003.600 Y0007.200 F0080.000

  (-- next depth z -000.750 --)
   G01 Z-000.750 F0050.000
   G01 X-003.600 Y0007.200 F0080.000
   G01 X0073.600 Y0007.200 F0080.000
   G01 X0073.600 Y0008.400 F0080.000
   G01 X-003.600 Y0008.400 F0080.000

  (-- next depth z -000.750 --)
   G01 Z-000.750 F0050.000
   G01 X-003.600 Y0008.400 F0080.000
   G01 X0073.600 Y0008.400 F0080.000
   G01 X0073.600 Y0009.600 F0080.000
   G01 X-003.600 Y0009.600 F0080.000

  (-- next depth z -000.750 --)
   G01 Z-000.750 F0050.000
   G01 X-003.600 Y0009.600 F0080.000
   G01 X0073.600 Y0009.600 F0080.000
   G01 X0073.600 Y0010.800 F0080.000
   G01 X-003.600 Y0010.800 F0080.000

  (-- next depth z -000.750 --)
   G01 Z-000.750 F0050.000
   G01 X-003.600 Y0010.800 F0080.000
   G01 X0073.600 Y0010.800 F0080.000
   G01 X0073.600 Y0012.000 F0080.000
   G01 X-003.600 Y0012.000 F0080.000

  (-- next depth z -000.750 --)
   G01 Z-000.750 F0050.000
   G01 X-003.600 Y0012.000 F0080.000
   G01 X0073.600 Y0012.000 F0080.000
   G01 X0073.600 Y0013.200 F0080.000
   G01 X-003.600 Y0013.200 F0080.000

  (-- next depth z -000.750 --)
   G01 Z-000.750 F0050.000
   G01 X-003.600 Y0013.200 F0080.000
   G01 X0073.600 Y0013.200 F0080.000
   G01 X0073.600 Y0014.400 F0080.000
   G01 X-003.600 Y0014.400 F0080.000

  (-- next depth z -000.750 --)
   G01 Z-000.750 F0050.000
   G01 X-003.600 Y0014.400 F0080.000
   G01 X0073.600 Y0014.400 F0080.000
   G01 X0073.600 Y0015.600 F0080.000
   G01 X-003.600 Y0015.600 F0080.000

  (-- next depth z -000.750 --)
   G01 Z-000.750 F0050.000
   G01 X-003.600 Y0015.600 F0080.000
   G01 X0073.600 Y0015.600 F0080.000
   G01 X0073.600 Y0016.800 F0080.000
   G01 X-003.600 Y0016.800 F0080.000

  (-- next depth z -000.750 --)
   G01 Z-000.750 F0050.000
   G01 X-003.600 Y0016.800 F0080.000
   G01 X0073.600 Y0016.800 F0080.000
   G01 X0073.600 Y0018.000 F0080.000
   G01 X-003.600 Y0018.000 F0080.000

  (-- next depth z -000.750 --)
   G01 Z-000.750 F0050.000
   G01 X-003.600 Y0018.000 F0080.000
   G01 X0073.600 Y0018.000 F0080.000
   G01 X0073.600 Y0019.200 F0080.000
   G01 X-003.600 Y0019.200 F0080.000

  (-- next depth z -000.750 --)
   G01 Z-000.750 F0050.000
   G01 X-003.600 Y0019.200 F0080.000
   G01 X0073.600 Y0019.200 F0080.000
   G01 X0073.600 Y0020.400 F0080.000
   G01 X-003.600 Y0020.400 F0080.000

  (-- next depth z -000.750 --)
   G01 Z-000.750 F0050.000
   G01 X-003.600 Y0020.400 F0080.000
   G01 X0073.600 Y0020.400 F0080.000
   G01 X0073.600 Y0021.600 F0080.000
   G01 X-003.600 Y0021.600 F0080.000

  (-- next depth z -000.750 --)
   G01 Z-000.750 F0050.000
   G01 X-003.600 Y0021.600 F0080.000
   G01 X0073.600 Y0021.600 F0080.000
   G01 X0073.600 Y0022.800 F0080.000
   G01 X-003.600 Y0022.800 F0080.000

  (-- next depth z -000.750 --)
   G01 Z-000.750 F0050.000
   G01 X-003.600 Y0022.800 F0080.000
   G01 X0073.600 Y0022.800 F0080.000
   G01 X0073.600 Y0024.000 F0080.000
   G01 X-003.600 Y0024.000 F0080.000

  (-- next depth z -000.750 --)
   G01 Z-000.750 F0050.000
   G01 X-003.600 Y0024.000 F0080.000
   G01 X0073.600 Y0024.000 F0080.000
   G01 X0073.600 Y0025.200 F0080.000
   G01 X-003.600 Y0025.200 F0080.000

  (-- next depth z -000.750 --)
   G01 Z-000.750 F0050.000
   G01 X-003.600 Y0025.200 F0080.000
   G01 X0073.600 Y0025.200 F0080.000
   G01 X0073.600 Y0026.400 F0080.000
   G01 X-003.600 Y0026.400 F0080.000

  (-- next depth z -000.750 --)
   G01 Z-000.750 F0050.000
   G01 X-003.600 Y0026.400 F0080.000
   G01 X0073.600 Y0026.400 F0080.000
   G01 X0073.600 Y0027.600 F0080.000
   G01 X-003.600 Y0027.600 F0080.000

  (-- next depth z -000.750 --)
   G01 Z-000.750 F0050.000
   G01 X-003.600 Y0027.600 F0080.000
   G01 X0073.600 Y0027.600 F0080.000
   G01 X0073.600 Y0028.800 F0080.000
   G01 X-003.600 Y0028.800 F0080.000

  (-- next depth z -000.750 --)
   G01 Z-000.750 F0050.000
   G01 X-003.600 Y0028.800 F0080.000
   G01 X0073.600 Y0028.800 F0080.000
   G01 X0073.600 Y0030.000 F0080.000
   G01 X-003.600 Y0030.000 F0080.000

  (-- next depth z -000.750 --)
   G01 Z-000.750 F0050.000
   G01 X-003.600 Y0030.000 F0080.000
   G01 X0073.600 Y0030.000 F0080.000
   G01 X0073.600 Y0031.200 F0080.000
   G01 X-003.600 Y0031.200 F0080.000

  (-- next depth z -000.750 --)
   G01 Z-000.750 F0050.000
   G01 X-003.600 Y0031.200 F0080.000
   G01 X0073.600 Y0031.200 F0080.000
   G01 X0073.600 Y0032.400 F0080.000
   G01 X-003.600 Y0032.400 F0080.000

  (-- next depth z -000.750 --)
   G01 Z-000.750 F0050.000
   G01 X-003.600 Y0032.400 F0080.000
   G01 X0073.600 Y0032.400 F0080.000
   G01 X0073.600 Y0033.600 F0080.000
   G01 X-003.600 Y0033.600 F0080.000

  (-- next depth z -000.750 --)
   G01 Z-000.750 F0050.000
   G01 X-003.600 Y0033.600 F0080.000
   G01 X0073.600 Y0033.600 F0080.000
   G01 X0073.600 Y0034.800 F0080.000
   G01 X-003.600 Y0034.800 F0080.000

  (-- next depth z -000.750 --)
   G01 Z-000.750 F0050.000
   G01 X-003.600 Y0034.800 F0080.000
   G01 X0073.600 Y0034.800 F0080.000
   G01 X0073.600 Y0036.000 F0080.000
   G01 X-003.600 Y0036.000 F0080.000

  (-- next depth z -000.750 --)
   G01 Z-000.750 F0050.000
   G01 X-003.600 Y0036.000 F0080.000
   G01 X0073.600 Y0036.000 F0080.000
   G01 X0073.600 Y0037.200 F0080.000
   G01 X-003.600 Y0037.200 F0080.000

  (-- next depth z -000.750 --)
   G01 Z-000.750 F0050.000
   G01 X-003.600 Y0037.200 F0080.000
   G01 X0073.600 Y0037.200 F0080.000
   G01 X0073.600 Y0038.400 F0080.000
   G01 X-003.600 Y0038.400 F0080.000

  (-- next depth z -000.750 --)
   G01 Z-000.750 F0050.000
   G01 X-003.600 Y0038.400 F0080.000
   G01 X0073.600 Y0038.400 F0080.000
   G01 X0073.600 Y0039.600 F0080.000
   G01 X-003.600 Y0039.600 F0080.000

  (-- next depth z -000.750 --)
   G01 Z-000.750 F0050.000
   G01 X-003.600 Y0039.600 F0080.000
   G01 X0073.600 Y0039.600 F0080.000
   G01 X0073.600 Y0040.800 F0080.000
   G01 X-003.600 Y0040.800 F0080.000

  (-- next depth z -000.750 --)
   G01 Z-000.750 F0050.000
   G01 X-003.600 Y0040.800 F0080.000
   G01 X0073.600 Y0040.800 F0080.000
   G01 X0073.600 Y0042.000 F0080.000
   G01 X-003.600 Y0042.000 F0080.000

  (-- next depth z -000.750 --)
   G01 Z-000.750 F0050.000
   G01 X-003.600 Y0042.000 F0080.000
   G01 X0073.600 Y0042.000 F0080.000
   G01 X0073.600 Y0043.200 F0080.000
   G01 X-003.600 Y0043.200 F0080.000

  (-- next depth z -000.750 --)
   G01 Z-000.750 F0050.000
   G01 X-003.600 Y0043.200 F0080.000
   G01 X0073.600 Y0043.200 F0080.000
   G01 X0073.600 Y0044.400 F0080.000
   G01 X-003.600 Y0044.400 F0080.000

  (-- next depth z -000.750 --)
   G01 Z-000.750 F0050.000
   G01 X-003.600 Y0044.400 F0080.000
   G01 X0073.600 Y0044.400 F0080.000
   G01 X0073.600 Y0045.600 F0080.000
   G01 X-003.600 Y0045.600 F0080.000

  (-- next depth z -000.750 --)
   G01 Z-000.750 F0050.000
   G01 X-003.600 Y0045.600 F0080.000
   G01 X0073.600 Y0045.600 F0080.000
   G01 X0073.600 Y0046.800 F0080.000
   G01 X-003.600 Y0046.800 F0080.000

  (-- next depth z -000.750 --)
   G01 Z-000.750 F0050.000
   G01 X-003.600 Y0046.800 F0080.000
   G01 X0073.600 Y0046.800 F0080.000
   G01 X0073.600 Y0048.000 F0080.000
   G01 X-003.600 Y0048.000 F0080.000

  (-- next depth z -000.750 --)
   G01 Z-000.750 F0050.000
   G01 X-003.600 Y0048.000 F0080.000
   G01 X0073.600 Y0048.000 F0080.000
   G01 X0073.600 Y0049.200 F0080.000
   G01 X-003.600 Y0049.200 F0080.000

  (-- next depth z -000.750 --)
   G01 Z-000.750 F0050.000
   G01 X-003.600 Y0049.200 F0080.000
   G01 X0073.600 Y0049.200 F0080.000
   G01 X0073.600 Y0050.400 F0080.000
   G01 X-003.600 Y0050.400 F0080.000

  (-- next depth z -000.750 --)
   G01 Z-000.750 F0050.000
   G01 X-003.600 Y0050.400 F0080.000
   G01 X0073.600 Y0050.400 F0080.000
   G01 X0073.600 Y0051.600 F0080.000
   G01 X-003.600 Y0051.600 F0080.000

  (-- next depth z -000.750 --)
   G01 Z-000.750 F0050.000
   G01 X-003.600 Y0051.600 F0080.000
   G01 X0073.600 Y0051.600 F0080.000
   G01 X0073.600 Y0052.800 F0080.000
   G01 X-003.600 Y0052.800 F0080.000

  (-- next depth z -000.750 --)
   G01 Z-000.750 F0050.000
   G01 X-003.600 Y0052.800 F0080.000
   G01 X0073.600 Y0052.800 F0080.000
   G01 X0073.600 Y0054.000 F0080.000
   G01 X-003.600 Y0054.000 F0080.000

  (-- next depth z -000.750 --)
   G01 Z-000.750 F0050.000
   G01 X-003.600 Y0054.000 F0080.000
   G01 X0073.600 Y0054.000 F0080.000
   G01 X0073.600 Y0055.200 F0080.000
   G01 X-003.600 Y0055.200 F0080.000

  (-- next depth z -000.750 --)
   G01 Z-000.750 F0050.000
   G01 X-003.600 Y0055.200 F0080.000
   G01 X0073.600 Y0055.200 F0080.000
   G01 X0073.600 Y0056.400 F0080.000
   G01 X-003.600 Y0056.400 F0080.000

  (-- next depth z -000.750 --)
   G01 Z-000.750 F0050.000
   G01 X-003.600 Y0056.400 F0080.000
   G01 X0073.600 Y0056.400 F0080.000
   G01 X0073.600 Y0057.600 F0080.000
   G01 X-003.600 Y0057.600 F0080.000

  (-- next depth z -000.750 --)
   G01 Z-000.750 F0050.000
   G01 X-003.600 Y0057.600 F0080.000
   G01 X0073.600 Y0057.600 F0080.000
   G01 X0073.600 Y0058.800 F0080.000
   G01 X-003.600 Y0058.800 F0080.000

  (-- next depth z -000.750 --)
   G01 Z-000.750 F0050.000
   G01 X-003.600 Y0058.800 F0080.000
   G01 X0073.600 Y0058.800 F0080.000
   G01 X0073.600 Y0060.000 F0080.000
   G01 X-003.600 Y0060.000 F0080.000

  (-- next depth z -000.750 --)
   G01 Z-000.750 F0050.000
   G01 X-003.600 Y0060.000 F0080.000
   G01 X0073.600 Y0060.000 F0080.000
   G01 X0073.600 Y0061.200 F0080.000
   G01 X-003.600 Y0061.200 F0080.000

  (-- next depth z -000.750 --)
   G01 Z-000.750 F0050.000
   G01 X-003.600 Y0061.200 F0080.000
   G01 X0073.600 Y0061.200 F0080.000
   G01 X0073.600 Y0062.400 F0080.000
   G01 X-003.600 Y0062.400 F0080.000

  (-- next depth z -000.750 --)
   G01 Z-000.750 F0050.000
   G01 X-003.600 Y0062.400 F0080.000
   G01 X0073.600 Y0062.400 F0080.000
   G01 X0073.600 Y0063.600 F0080.000
   G01 X-003.600 Y0063.600 F0080.000

  (-- next depth z -000.750 --)
   G01 Z-000.750 F0050.000
   G01 X-003.600 Y0063.600 F0080.000
   G01 X0073.600 Y0063.600 F0080.000
   G01 X0073.600 Y0064.800 F0080.000
   G01 X-003.600 Y0064.800 F0080.000

  (-- next depth z -000.750 --)
   G01 Z-000.750 F0050.000
   G01 X-003.600 Y0064.800 F0080.000
   G01 X0073.600 Y0064.800 F0080.000
   G01 X0073.600 Y0066.000 F0080.000
   G01 X-003.600 Y0066.000 F0080.000

  (-- next depth z -000.750 --)
   G01 Z-000.750 F0050.000
   G01 X-003.600 Y0066.000 F0080.000
   G01 X0073.600 Y0066.000 F0080.000
   G01 X0073.600 Y0067.200 F0080.000
   G01 X-003.600 Y0067.200 F0080.000

  (-- next depth z -000.750 --)
   G01 Z-000.750 F0050.000
   G01 X-003.600 Y0067.200 F0080.000
   G01 X0073.600 Y0067.200 F0080.000
   G01 X0073.600 Y0068.400 F0080.000
   G01 X-003.600 Y0068.400 F0080.000

  (-- next depth z -000.750 --)
   G01 Z-000.750 F0050.000
   G01 X-003.600 Y0068.400 F0080.000
   G01 X0073.600 Y0068.400 F0080.000
   G01 X0073.600 Y0069.600 F0080.000
   G01 X-003.600 Y0069.600 F0080.000

  (-- next depth z -000.750 --)
   G01 Z-000.750 F0050.000
   G01 X-003.600 Y0069.600 F0080.000
   G01 X0073.600 Y0069.600 F0080.000
   G01 X0073.600 Y0070.800 F0080.000
   G01 X-003.600 Y0070.800 F0080.000

  (-- next depth z -000.750 --)
   G01 Z-000.750 F0050.000
   G01 X-003.600 Y0070.800 F0080.000
   G01 X0073.600 Y0070.800 F0080.000
   G01 X0073.600 Y0072.000 F0080.000
   G01 X-003.600 Y0072.000 F0080.000

  (-- next depth z -000.750 --)
   G01 Z-000.750 F0050.000
   G01 X-003.600 Y0072.000 F0080.000
   G01 X0073.600 Y0072.000 F0080.000
   G01 X0073.600 Y0073.200 F0080.000
   G01 X-003.600 Y0073.200 F0080.000

  (-- next depth z -000.750 --)
   G01 Z-000.750 F0050.000
   G01 X-003.600 Y0073.200 F0080.000
   G01 X0073.600 Y0073.200 F0080.000
   G01 X0073.600 Y0074.400 F0080.000
   G01 X-003.600 Y0074.400 F0080.000

  (-- next depth z -000.750 --)
   G01 Z-000.750 F0050.000
   G01 X-003.600 Y0074.400 F0080.000
   G01 X0073.600 Y0074.400 F0080.000
   G01 X0073.600 Y0075.600 F0080.000
   G01 X-003.600 Y0075.600 F0080.000

  (-- next depth z -000.750 --)
   G01 Z-000.750 F0050.000
   G01 X-003.600 Y0075.600 F0080.000
   G01 X0073.600 Y0075.600 F0080.000
   G01 X0073.600 Y0076.800 F0080.000
   G01 X-003.600 Y0076.800 F0080.000

  (-- next depth z -000.750 --)
   G01 Z-000.750 F0050.000
   G01 X-003.600 Y0076.800 F0080.000
   G01 X0073.600 Y0076.800 F0080.000
   G01 X0073.600 Y0078.000 F0080.000
   G01 X-003.600 Y0078.000 F0080.000

  (-- next depth z -000.750 --)
   G01 Z-000.750 F0050.000
   G01 X-003.600 Y0078.000 F0080.000
   G01 X0073.600 Y0078.000 F0080.000
   G01 X0073.600 Y0079.200 F0080.000
   G01 X-003.600 Y0079.200 F0080.000

  (-- next depth z -000.750 --)
   G01 Z-000.750 F0050.000
   G01 X-003.600 Y0079.200 F0080.000
   G01 X0073.600 Y0079.200 F0080.000
   G01 X0073.600 Y0080.400 F0080.000
   G01 X-003.600 Y0080.400 F0080.000

  (-- next depth z -000.750 --)
   G01 Z-000.750 F0050.000
   G01 X-003.600 Y0080.400 F0080.000
   G01 X0073.600 Y0080.400 F0080.000
   G01 X0073.600 Y0081.600 F0080.000
   G01 X-003.600 Y0081.600 F0080.000

  (-- next depth z -000.750 --)
   G01 Z-000.750 F0050.000
   G01 X-003.600 Y0081.600 F0080.000
   G01 X0073.600 Y0081.600 F0080.000
   G01 X0073.600 Y0082.800 F0080.000
   G01 X-003.600 Y0082.800 F0080.000

  (-- next depth z -000.750 --)
   G01 Z-000.750 F0050.000
   G01 X-003.600 Y0082.800 F0080.000
   G01 X0073.600 Y0082.800 F0080.000
   G01 X0073.600 Y0084.000 F0080.000
   G01 X-003.600 Y0084.000 F0080.000

  (-- next depth z -000.750 --)
   G01 Z-000.750 F0050.000
   G01 X-003.600 Y0084.000 F0080.000
   G01 X0073.600 Y0084.000 F0080.000
   G01 X0073.600 Y0085.200 F0080.000
   G01 X-003.600 Y0085.200 F0080.000

  (-- next depth z -000.750 --)
   G01 Z-000.750 F0050.000
   G01 X-003.600 Y0085.200 F0080.000
   G01 X0073.600 Y0085.200 F0080.000
   G01 X0073.600 Y0086.400 F0080.000
   G01 X-003.600 Y0086.400 F0080.000

  (-- next depth z -000.750 --)
   G01 Z-000.750 F0050.000
   G01 X-003.600 Y0086.400 F0080.000
   G01 X0073.600 Y0086.400 F0080.000
   G01 X0073.600 Y0087.600 F0080.000
   G01 X-003.600 Y0087.600 F0080.000

  (-- next depth z -000.750 --)
   G01 Z-000.750 F0050.000
   G01 X-003.600 Y0087.600 F0080.000
   G01 X0073.600 Y0087.600 F0080.000
   G01 X0073.600 Y0088.800 F0080.000
   G01 X-003.600 Y0088.800 F0080.000

  (-- next depth z -000.750 --)
   G01 Z-000.750 F0050.000
   G01 X-003.600 Y0088.800 F0080.000
   G01 X0073.600 Y0088.800 F0080.000
   G01 X0073.600 Y0090.000 F0080.000
   G01 X-003.600 Y0090.000 F0080.000

  (-- next depth z -000.750 --)
   G01 Z-000.750 F0050.000
   G01 X-003.600 Y0090.000 F0080.000
   G01 X0073.600 Y0090.000 F0080.000
   G01 X0073.600 Y0091.200 F0080.000
   G01 X-003.600 Y0091.200 F0080.000

  (-- next depth z -000.750 --)
   G01 Z-000.750 F0050.000
   G01 X-003.600 Y0091.200 F0080.000
   G01 X0073.600 Y0091.200 F0080.000
   G01 X0073.600 Y0092.400 F0080.000
   G01 X-003.600 Y0092.400 F0080.000

  (-- next depth z -000.750 --)
   G01 Z-000.750 F0050.000
   G01 X-003.600 Y0092.400 F0080.000
   G01 X0073.600 Y0092.400 F0080.000
   G01 X0073.600 Y0093.600 F0080.000
   G01 X-003.600 Y0093.600 F0080.000

  (-- next depth z -000.750 --)
   G01 Z-000.750 F0050.000
   G01 X-003.600 Y0093.600 F0080.000
   G01 X0073.600 Y0093.600 F0080.000
   G01 X0073.600 Y0094.800 F0080.000
   G01 X-003.600 Y0094.800 F0080.000

  (-- next depth z -000.750 --)
   G01 Z-000.750 F0050.000
   G01 X-003.600 Y0094.800 F0080.000
   G01 X0073.600 Y0094.800 F0080.000
   G01 X0073.600 Y0096.000 F0080.000
   G01 X-003.600 Y0096.000 F0080.000

  (-- next depth z -000.750 --)
   G01 Z-000.750 F0050.000
   G01 X-003.600 Y0096.000 F0080.000
   G01 X0073.600 Y0096.000 F0080.000
   G01 X0073.600 Y0097.200 F0080.000
   G01 X-003.600 Y0097.200 F0080.000

  (-- next depth z -000.750 --)
   G01 Z-000.750 F0050.000
   G01 X-003.600 Y0097.200 F0080.000
   G01 X0073.600 Y0097.200 F0080.000
   G01 X0073.600 Y0098.400 F0080.000
   G01 X-003.600 Y0098.400 F0080.000

  (-- next depth z -000.750 --)
   G01 Z-000.750 F0050.000
   G01 X-003.600 Y0098.400 F0080.000
   G01 X0073.600 Y0098.400 F0080.000
   G01 X0073.600 Y0099.600 F0080.000
   G01 X-003.600 Y0099.600 F0080.000

  (-- next depth z -000.750 --)
   G01 Z-000.750 F0050.000
   G01 X-003.600 Y0099.600 F0080.000
   G01 X0073.600 Y0099.600 F0080.000
   G01 X0073.600 Y0100.800 F0080.000
   G01 X-003.600 Y0100.800 F0080.000

  (-- next depth z -000.750 --)
   G01 Z-000.750 F0050.000
   G01 X-003.600 Y0100.800 F0080.000
   G01 X0073.600 Y0100.800 F0080.000
   G01 X0073.600 Y0102.000 F0080.000
   G01 X-003.600 Y0102.000 F0080.000
  (-- END Track Loop  --)
  (-- START Track Loop  --)

  (-- next depth z -001.000 --)
   G01 Z-001.000 F0050.000
   G01 X-003.600 Y0000.000 F0080.000
   G01 X0073.600 Y0000.000 F0080.000
   G01 X0073.600 Y0001.200 F0080.000
   G01 X-003.600 Y0001.200 F0080.000

  (-- next depth z -001.000 --)
   G01 Z-001.000 F0050.000
   G01 X-003.600 Y0001.200 F0080.000
   G01 X0073.600 Y0001.200 F0080.000
   G01 X0073.600 Y0002.400 F0080.000
   G01 X-003.600 Y0002.400 F0080.000

  (-- next depth z -001.000 --)
   G01 Z-001.000 F0050.000
   G01 X-003.600 Y0002.400 F0080.000
   G01 X0073.600 Y0002.400 F0080.000
   G01 X0073.600 Y0003.600 F0080.000
   G01 X-003.600 Y0003.600 F0080.000

  (-- next depth z -001.000 --)
   G01 Z-001.000 F0050.000
   G01 X-003.600 Y0003.600 F0080.000
   G01 X0073.600 Y0003.600 F0080.000
   G01 X0073.600 Y0004.800 F0080.000
   G01 X-003.600 Y0004.800 F0080.000

  (-- next depth z -001.000 --)
   G01 Z-001.000 F0050.000
   G01 X-003.600 Y0004.800 F0080.000
   G01 X0073.600 Y0004.800 F0080.000
   G01 X0073.600 Y0006.000 F0080.000
   G01 X-003.600 Y0006.000 F0080.000

  (-- next depth z -001.000 --)
   G01 Z-001.000 F0050.000
   G01 X-003.600 Y0006.000 F0080.000
   G01 X0073.600 Y0006.000 F0080.000
   G01 X0073.600 Y0007.200 F0080.000
   G01 X-003.600 Y0007.200 F0080.000

  (-- next depth z -001.000 --)
   G01 Z-001.000 F0050.000
   G01 X-003.600 Y0007.200 F0080.000
   G01 X0073.600 Y0007.200 F0080.000
   G01 X0073.600 Y0008.400 F0080.000
   G01 X-003.600 Y0008.400 F0080.000

  (-- next depth z -001.000 --)
   G01 Z-001.000 F0050.000
   G01 X-003.600 Y0008.400 F0080.000
   G01 X0073.600 Y0008.400 F0080.000
   G01 X0073.600 Y0009.600 F0080.000
   G01 X-003.600 Y0009.600 F0080.000

  (-- next depth z -001.000 --)
   G01 Z-001.000 F0050.000
   G01 X-003.600 Y0009.600 F0080.000
   G01 X0073.600 Y0009.600 F0080.000
   G01 X0073.600 Y0010.800 F0080.000
   G01 X-003.600 Y0010.800 F0080.000

  (-- next depth z -001.000 --)
   G01 Z-001.000 F0050.000
   G01 X-003.600 Y0010.800 F0080.000
   G01 X0073.600 Y0010.800 F0080.000
   G01 X0073.600 Y0012.000 F0080.000
   G01 X-003.600 Y0012.000 F0080.000

  (-- next depth z -001.000 --)
   G01 Z-001.000 F0050.000
   G01 X-003.600 Y0012.000 F0080.000
   G01 X0073.600 Y0012.000 F0080.000
   G01 X0073.600 Y0013.200 F0080.000
   G01 X-003.600 Y0013.200 F0080.000

  (-- next depth z -001.000 --)
   G01 Z-001.000 F0050.000
   G01 X-003.600 Y0013.200 F0080.000
   G01 X0073.600 Y0013.200 F0080.000
   G01 X0073.600 Y0014.400 F0080.000
   G01 X-003.600 Y0014.400 F0080.000

  (-- next depth z -001.000 --)
   G01 Z-001.000 F0050.000
   G01 X-003.600 Y0014.400 F0080.000
   G01 X0073.600 Y0014.400 F0080.000
   G01 X0073.600 Y0015.600 F0080.000
   G01 X-003.600 Y0015.600 F0080.000

  (-- next depth z -001.000 --)
   G01 Z-001.000 F0050.000
   G01 X-003.600 Y0015.600 F0080.000
   G01 X0073.600 Y0015.600 F0080.000
   G01 X0073.600 Y0016.800 F0080.000
   G01 X-003.600 Y0016.800 F0080.000

  (-- next depth z -001.000 --)
   G01 Z-001.000 F0050.000
   G01 X-003.600 Y0016.800 F0080.000
   G01 X0073.600 Y0016.800 F0080.000
   G01 X0073.600 Y0018.000 F0080.000
   G01 X-003.600 Y0018.000 F0080.000

  (-- next depth z -001.000 --)
   G01 Z-001.000 F0050.000
   G01 X-003.600 Y0018.000 F0080.000
   G01 X0073.600 Y0018.000 F0080.000
   G01 X0073.600 Y0019.200 F0080.000
   G01 X-003.600 Y0019.200 F0080.000

  (-- next depth z -001.000 --)
   G01 Z-001.000 F0050.000
   G01 X-003.600 Y0019.200 F0080.000
   G01 X0073.600 Y0019.200 F0080.000
   G01 X0073.600 Y0020.400 F0080.000
   G01 X-003.600 Y0020.400 F0080.000

  (-- next depth z -001.000 --)
   G01 Z-001.000 F0050.000
   G01 X-003.600 Y0020.400 F0080.000
   G01 X0073.600 Y0020.400 F0080.000
   G01 X0073.600 Y0021.600 F0080.000
   G01 X-003.600 Y0021.600 F0080.000

  (-- next depth z -001.000 --)
   G01 Z-001.000 F0050.000
   G01 X-003.600 Y0021.600 F0080.000
   G01 X0073.600 Y0021.600 F0080.000
   G01 X0073.600 Y0022.800 F0080.000
   G01 X-003.600 Y0022.800 F0080.000

  (-- next depth z -001.000 --)
   G01 Z-001.000 F0050.000
   G01 X-003.600 Y0022.800 F0080.000
   G01 X0073.600 Y0022.800 F0080.000
   G01 X0073.600 Y0024.000 F0080.000
   G01 X-003.600 Y0024.000 F0080.000

  (-- next depth z -001.000 --)
   G01 Z-001.000 F0050.000
   G01 X-003.600 Y0024.000 F0080.000
   G01 X0073.600 Y0024.000 F0080.000
   G01 X0073.600 Y0025.200 F0080.000
   G01 X-003.600 Y0025.200 F0080.000

  (-- next depth z -001.000 --)
   G01 Z-001.000 F0050.000
   G01 X-003.600 Y0025.200 F0080.000
   G01 X0073.600 Y0025.200 F0080.000
   G01 X0073.600 Y0026.400 F0080.000
   G01 X-003.600 Y0026.400 F0080.000

  (-- next depth z -001.000 --)
   G01 Z-001.000 F0050.000
   G01 X-003.600 Y0026.400 F0080.000
   G01 X0073.600 Y0026.400 F0080.000
   G01 X0073.600 Y0027.600 F0080.000
   G01 X-003.600 Y0027.600 F0080.000

  (-- next depth z -001.000 --)
   G01 Z-001.000 F0050.000
   G01 X-003.600 Y0027.600 F0080.000
   G01 X0073.600 Y0027.600 F0080.000
   G01 X0073.600 Y0028.800 F0080.000
   G01 X-003.600 Y0028.800 F0080.000

  (-- next depth z -001.000 --)
   G01 Z-001.000 F0050.000
   G01 X-003.600 Y0028.800 F0080.000
   G01 X0073.600 Y0028.800 F0080.000
   G01 X0073.600 Y0030.000 F0080.000
   G01 X-003.600 Y0030.000 F0080.000

  (-- next depth z -001.000 --)
   G01 Z-001.000 F0050.000
   G01 X-003.600 Y0030.000 F0080.000
   G01 X0073.600 Y0030.000 F0080.000
   G01 X0073.600 Y0031.200 F0080.000
   G01 X-003.600 Y0031.200 F0080.000

  (-- next depth z -001.000 --)
   G01 Z-001.000 F0050.000
   G01 X-003.600 Y0031.200 F0080.000
   G01 X0073.600 Y0031.200 F0080.000
   G01 X0073.600 Y0032.400 F0080.000
   G01 X-003.600 Y0032.400 F0080.000

  (-- next depth z -001.000 --)
   G01 Z-001.000 F0050.000
   G01 X-003.600 Y0032.400 F0080.000
   G01 X0073.600 Y0032.400 F0080.000
   G01 X0073.600 Y0033.600 F0080.000
   G01 X-003.600 Y0033.600 F0080.000

  (-- next depth z -001.000 --)
   G01 Z-001.000 F0050.000
   G01 X-003.600 Y0033.600 F0080.000
   G01 X0073.600 Y0033.600 F0080.000
   G01 X0073.600 Y0034.800 F0080.000
   G01 X-003.600 Y0034.800 F0080.000

  (-- next depth z -001.000 --)
   G01 Z-001.000 F0050.000
   G01 X-003.600 Y0034.800 F0080.000
   G01 X0073.600 Y0034.800 F0080.000
   G01 X0073.600 Y0036.000 F0080.000
   G01 X-003.600 Y0036.000 F0080.000

  (-- next depth z -001.000 --)
   G01 Z-001.000 F0050.000
   G01 X-003.600 Y0036.000 F0080.000
   G01 X0073.600 Y0036.000 F0080.000
   G01 X0073.600 Y0037.200 F0080.000
   G01 X-003.600 Y0037.200 F0080.000

  (-- next depth z -001.000 --)
   G01 Z-001.000 F0050.000
   G01 X-003.600 Y0037.200 F0080.000
   G01 X0073.600 Y0037.200 F0080.000
   G01 X0073.600 Y0038.400 F0080.000
   G01 X-003.600 Y0038.400 F0080.000

  (-- next depth z -001.000 --)
   G01 Z-001.000 F0050.000
   G01 X-003.600 Y0038.400 F0080.000
   G01 X0073.600 Y0038.400 F0080.000
   G01 X0073.600 Y0039.600 F0080.000
   G01 X-003.600 Y0039.600 F0080.000

  (-- next depth z -001.000 --)
   G01 Z-001.000 F0050.000
   G01 X-003.600 Y0039.600 F0080.000
   G01 X0073.600 Y0039.600 F0080.000
   G01 X0073.600 Y0040.800 F0080.000
   G01 X-003.600 Y0040.800 F0080.000

  (-- next depth z -001.000 --)
   G01 Z-001.000 F0050.000
   G01 X-003.600 Y0040.800 F0080.000
   G01 X0073.600 Y0040.800 F0080.000
   G01 X0073.600 Y0042.000 F0080.000
   G01 X-003.600 Y0042.000 F0080.000

  (-- next depth z -001.000 --)
   G01 Z-001.000 F0050.000
   G01 X-003.600 Y0042.000 F0080.000
   G01 X0073.600 Y0042.000 F0080.000
   G01 X0073.600 Y0043.200 F0080.000
   G01 X-003.600 Y0043.200 F0080.000

  (-- next depth z -001.000 --)
   G01 Z-001.000 F0050.000
   G01 X-003.600 Y0043.200 F0080.000
   G01 X0073.600 Y0043.200 F0080.000
   G01 X0073.600 Y0044.400 F0080.000
   G01 X-003.600 Y0044.400 F0080.000

  (-- next depth z -001.000 --)
   G01 Z-001.000 F0050.000
   G01 X-003.600 Y0044.400 F0080.000
   G01 X0073.600 Y0044.400 F0080.000
   G01 X0073.600 Y0045.600 F0080.000
   G01 X-003.600 Y0045.600 F0080.000

  (-- next depth z -001.000 --)
   G01 Z-001.000 F0050.000
   G01 X-003.600 Y0045.600 F0080.000
   G01 X0073.600 Y0045.600 F0080.000
   G01 X0073.600 Y0046.800 F0080.000
   G01 X-003.600 Y0046.800 F0080.000

  (-- next depth z -001.000 --)
   G01 Z-001.000 F0050.000
   G01 X-003.600 Y0046.800 F0080.000
   G01 X0073.600 Y0046.800 F0080.000
   G01 X0073.600 Y0048.000 F0080.000
   G01 X-003.600 Y0048.000 F0080.000

  (-- next depth z -001.000 --)
   G01 Z-001.000 F0050.000
   G01 X-003.600 Y0048.000 F0080.000
   G01 X0073.600 Y0048.000 F0080.000
   G01 X0073.600 Y0049.200 F0080.000
   G01 X-003.600 Y0049.200 F0080.000

  (-- next depth z -001.000 --)
   G01 Z-001.000 F0050.000
   G01 X-003.600 Y0049.200 F0080.000
   G01 X0073.600 Y0049.200 F0080.000
   G01 X0073.600 Y0050.400 F0080.000
   G01 X-003.600 Y0050.400 F0080.000

  (-- next depth z -001.000 --)
   G01 Z-001.000 F0050.000
   G01 X-003.600 Y0050.400 F0080.000
   G01 X0073.600 Y0050.400 F0080.000
   G01 X0073.600 Y0051.600 F0080.000
   G01 X-003.600 Y0051.600 F0080.000

  (-- next depth z -001.000 --)
   G01 Z-001.000 F0050.000
   G01 X-003.600 Y0051.600 F0080.000
   G01 X0073.600 Y0051.600 F0080.000
   G01 X0073.600 Y0052.800 F0080.000
   G01 X-003.600 Y0052.800 F0080.000

  (-- next depth z -001.000 --)
   G01 Z-001.000 F0050.000
   G01 X-003.600 Y0052.800 F0080.000
   G01 X0073.600 Y0052.800 F0080.000
   G01 X0073.600 Y0054.000 F0080.000
   G01 X-003.600 Y0054.000 F0080.000

  (-- next depth z -001.000 --)
   G01 Z-001.000 F0050.000
   G01 X-003.600 Y0054.000 F0080.000
   G01 X0073.600 Y0054.000 F0080.000
   G01 X0073.600 Y0055.200 F0080.000
   G01 X-003.600 Y0055.200 F0080.000

  (-- next depth z -001.000 --)
   G01 Z-001.000 F0050.000
   G01 X-003.600 Y0055.200 F0080.000
   G01 X0073.600 Y0055.200 F0080.000
   G01 X0073.600 Y0056.400 F0080.000
   G01 X-003.600 Y0056.400 F0080.000

  (-- next depth z -001.000 --)
   G01 Z-001.000 F0050.000
   G01 X-003.600 Y0056.400 F0080.000
   G01 X0073.600 Y0056.400 F0080.000
   G01 X0073.600 Y0057.600 F0080.000
   G01 X-003.600 Y0057.600 F0080.000

  (-- next depth z -001.000 --)
   G01 Z-001.000 F0050.000
   G01 X-003.600 Y0057.600 F0080.000
   G01 X0073.600 Y0057.600 F0080.000
   G01 X0073.600 Y0058.800 F0080.000
   G01 X-003.600 Y0058.800 F0080.000

  (-- next depth z -001.000 --)
   G01 Z-001.000 F0050.000
   G01 X-003.600 Y0058.800 F0080.000
   G01 X0073.600 Y0058.800 F0080.000
   G01 X0073.600 Y0060.000 F0080.000
   G01 X-003.600 Y0060.000 F0080.000

  (-- next depth z -001.000 --)
   G01 Z-001.000 F0050.000
   G01 X-003.600 Y0060.000 F0080.000
   G01 X0073.600 Y0060.000 F0080.000
   G01 X0073.600 Y0061.200 F0080.000
   G01 X-003.600 Y0061.200 F0080.000

  (-- next depth z -001.000 --)
   G01 Z-001.000 F0050.000
   G01 X-003.600 Y0061.200 F0080.000
   G01 X0073.600 Y0061.200 F0080.000
   G01 X0073.600 Y0062.400 F0080.000
   G01 X-003.600 Y0062.400 F0080.000

  (-- next depth z -001.000 --)
   G01 Z-001.000 F0050.000
   G01 X-003.600 Y0062.400 F0080.000
   G01 X0073.600 Y0062.400 F0080.000
   G01 X0073.600 Y0063.600 F0080.000
   G01 X-003.600 Y0063.600 F0080.000

  (-- next depth z -001.000 --)
   G01 Z-001.000 F0050.000
   G01 X-003.600 Y0063.600 F0080.000
   G01 X0073.600 Y0063.600 F0080.000
   G01 X0073.600 Y0064.800 F0080.000
   G01 X-003.600 Y0064.800 F0080.000

  (-- next depth z -001.000 --)
   G01 Z-001.000 F0050.000
   G01 X-003.600 Y0064.800 F0080.000
   G01 X0073.600 Y0064.800 F0080.000
   G01 X0073.600 Y0066.000 F0080.000
   G01 X-003.600 Y0066.000 F0080.000

  (-- next depth z -001.000 --)
   G01 Z-001.000 F0050.000
   G01 X-003.600 Y0066.000 F0080.000
   G01 X0073.600 Y0066.000 F0080.000
   G01 X0073.600 Y0067.200 F0080.000
   G01 X-003.600 Y0067.200 F0080.000

  (-- next depth z -001.000 --)
   G01 Z-001.000 F0050.000
   G01 X-003.600 Y0067.200 F0080.000
   G01 X0073.600 Y0067.200 F0080.000
   G01 X0073.600 Y0068.400 F0080.000
   G01 X-003.600 Y0068.400 F0080.000

  (-- next depth z -001.000 --)
   G01 Z-001.000 F0050.000
   G01 X-003.600 Y0068.400 F0080.000
   G01 X0073.600 Y0068.400 F0080.000
   G01 X0073.600 Y0069.600 F0080.000
   G01 X-003.600 Y0069.600 F0080.000

  (-- next depth z -001.000 --)
   G01 Z-001.000 F0050.000
   G01 X-003.600 Y0069.600 F0080.000
   G01 X0073.600 Y0069.600 F0080.000
   G01 X0073.600 Y0070.800 F0080.000
   G01 X-003.600 Y0070.800 F0080.000

  (-- next depth z -001.000 --)
   G01 Z-001.000 F0050.000
   G01 X-003.600 Y0070.800 F0080.000
   G01 X0073.600 Y0070.800 F0080.000
   G01 X0073.600 Y0072.000 F0080.000
   G01 X-003.600 Y0072.000 F0080.000

  (-- next depth z -001.000 --)
   G01 Z-001.000 F0050.000
   G01 X-003.600 Y0072.000 F0080.000
   G01 X0073.600 Y0072.000 F0080.000
   G01 X0073.600 Y0073.200 F0080.000
   G01 X-003.600 Y0073.200 F0080.000

  (-- next depth z -001.000 --)
   G01 Z-001.000 F0050.000
   G01 X-003.600 Y0073.200 F0080.000
   G01 X0073.600 Y0073.200 F0080.000
   G01 X0073.600 Y0074.400 F0080.000
   G01 X-003.600 Y0074.400 F0080.000

  (-- next depth z -001.000 --)
   G01 Z-001.000 F0050.000
   G01 X-003.600 Y0074.400 F0080.000
   G01 X0073.600 Y0074.400 F0080.000
   G01 X0073.600 Y0075.600 F0080.000
   G01 X-003.600 Y0075.600 F0080.000

  (-- next depth z -001.000 --)
   G01 Z-001.000 F0050.000
   G01 X-003.600 Y0075.600 F0080.000
   G01 X0073.600 Y0075.600 F0080.000
   G01 X0073.600 Y0076.800 F0080.000
   G01 X-003.600 Y0076.800 F0080.000

  (-- next depth z -001.000 --)
   G01 Z-001.000 F0050.000
   G01 X-003.600 Y0076.800 F0080.000
   G01 X0073.600 Y0076.800 F0080.000
   G01 X0073.600 Y0078.000 F0080.000
   G01 X-003.600 Y0078.000 F0080.000

  (-- next depth z -001.000 --)
   G01 Z-001.000 F0050.000
   G01 X-003.600 Y0078.000 F0080.000
   G01 X0073.600 Y0078.000 F0080.000
   G01 X0073.600 Y0079.200 F0080.000
   G01 X-003.600 Y0079.200 F0080.000

  (-- next depth z -001.000 --)
   G01 Z-001.000 F0050.000
   G01 X-003.600 Y0079.200 F0080.000
   G01 X0073.600 Y0079.200 F0080.000
   G01 X0073.600 Y0080.400 F0080.000
   G01 X-003.600 Y0080.400 F0080.000

  (-- next depth z -001.000 --)
   G01 Z-001.000 F0050.000
   G01 X-003.600 Y0080.400 F0080.000
   G01 X0073.600 Y0080.400 F0080.000
   G01 X0073.600 Y0081.600 F0080.000
   G01 X-003.600 Y0081.600 F0080.000

  (-- next depth z -001.000 --)
   G01 Z-001.000 F0050.000
   G01 X-003.600 Y0081.600 F0080.000
   G01 X0073.600 Y0081.600 F0080.000
   G01 X0073.600 Y0082.800 F0080.000
   G01 X-003.600 Y0082.800 F0080.000

  (-- next depth z -001.000 --)
   G01 Z-001.000 F0050.000
   G01 X-003.600 Y0082.800 F0080.000
   G01 X0073.600 Y0082.800 F0080.000
   G01 X0073.600 Y0084.000 F0080.000
   G01 X-003.600 Y0084.000 F0080.000

  (-- next depth z -001.000 --)
   G01 Z-001.000 F0050.000
   G01 X-003.600 Y0084.000 F0080.000
   G01 X0073.600 Y0084.000 F0080.000
   G01 X0073.600 Y0085.200 F0080.000
   G01 X-003.600 Y0085.200 F0080.000

  (-- next depth z -001.000 --)
   G01 Z-001.000 F0050.000
   G01 X-003.600 Y0085.200 F0080.000
   G01 X0073.600 Y0085.200 F0080.000
   G01 X0073.600 Y0086.400 F0080.000
   G01 X-003.600 Y0086.400 F0080.000

  (-- next depth z -001.000 --)
   G01 Z-001.000 F0050.000
   G01 X-003.600 Y0086.400 F0080.000
   G01 X0073.600 Y0086.400 F0080.000
   G01 X0073.600 Y0087.600 F0080.000
   G01 X-003.600 Y0087.600 F0080.000

  (-- next depth z -001.000 --)
   G01 Z-001.000 F0050.000
   G01 X-003.600 Y0087.600 F0080.000
   G01 X0073.600 Y0087.600 F0080.000
   G01 X0073.600 Y0088.800 F0080.000
   G01 X-003.600 Y0088.800 F0080.000

  (-- next depth z -001.000 --)
   G01 Z-001.000 F0050.000
   G01 X-003.600 Y0088.800 F0080.000
   G01 X0073.600 Y0088.800 F0080.000
   G01 X0073.600 Y0090.000 F0080.000
   G01 X-003.600 Y0090.000 F0080.000

  (-- next depth z -001.000 --)
   G01 Z-001.000 F0050.000
   G01 X-003.600 Y0090.000 F0080.000
   G01 X0073.600 Y0090.000 F0080.000
   G01 X0073.600 Y0091.200 F0080.000
   G01 X-003.600 Y0091.200 F0080.000

  (-- next depth z -001.000 --)
   G01 Z-001.000 F0050.000
   G01 X-003.600 Y0091.200 F0080.000
   G01 X0073.600 Y0091.200 F0080.000
   G01 X0073.600 Y0092.400 F0080.000
   G01 X-003.600 Y0092.400 F0080.000

  (-- next depth z -001.000 --)
   G01 Z-001.000 F0050.000
   G01 X-003.600 Y0092.400 F0080.000
   G01 X0073.600 Y0092.400 F0080.000
   G01 X0073.600 Y0093.600 F0080.000
   G01 X-003.600 Y0093.600 F0080.000

  (-- next depth z -001.000 --)
   G01 Z-001.000 F0050.000
   G01 X-003.600 Y0093.600 F0080.000
   G01 X0073.600 Y0093.600 F0080.000
   G01 X0073.600 Y0094.800 F0080.000
   G01 X-003.600 Y0094.800 F0080.000

  (-- next depth z -001.000 --)
   G01 Z-001.000 F0050.000
   G01 X-003.600 Y0094.800 F0080.000
   G01 X0073.600 Y0094.800 F0080.000
   G01 X0073.600 Y0096.000 F0080.000
   G01 X-003.600 Y0096.000 F0080.000

  (-- next depth z -001.000 --)
   G01 Z-001.000 F0050.000
   G01 X-003.600 Y0096.000 F0080.000
   G01 X0073.600 Y0096.000 F0080.000
   G01 X0073.600 Y0097.200 F0080.000
   G01 X-003.600 Y0097.200 F0080.000

  (-- next depth z -001.000 --)
   G01 Z-001.000 F0050.000
   G01 X-003.600 Y0097.200 F0080.000
   G01 X0073.600 Y0097.200 F0080.000
   G01 X0073.600 Y0098.400 F0080.000
   G01 X-003.600 Y0098.400 F0080.000

  (-- next depth z -001.000 --)
   G01 Z-001.000 F0050.000
   G01 X-003.600 Y0098.400 F0080.000
   G01 X0073.600 Y0098.400 F0080.000
   G01 X0073.600 Y0099.600 F0080.000
   G01 X-003.600 Y0099.600 F0080.000

  (-- next depth z -001.000 --)
   G01 Z-001.000 F0050.000
   G01 X-003.600 Y0099.600 F0080.000
   G01 X0073.600 Y0099.600 F0080.000
   G01 X0073.600 Y0100.800 F0080.000
   G01 X-003.600 Y0100.800 F0080.000

  (-- next depth z -001.000 --)
   G01 Z-001.000 F0050.000
   G01 X-003.600 Y0100.800 F0080.000
   G01 X0073.600 Y0100.800 F0080.000
   G01 X0073.600 Y0102.000 F0080.000
   G01 X-003.600 Y0102.000 F0080.000
  (-- END Track Loop  --)
(-- END DEPTH loop --)
G01 Z0010.000 F200.0 
G01 X0000.000 Y0102.000 F200.0 
G00 Z10 F100 
M2

%
