%

(set preamble)
G21 G90 G64 G17 G40 G49
G21

T4 M6
(set Z saftey position)
G00 Z0010.000 F200.0 

(set center position)
G00 X0000.000 Y0000.000 F200.0 

(------- start shape -------------)

(move Z-axis to start postion near surface)
G00 Z0003.000 F200.0 

(-- START DEPTH Loop --)
  (-- START Track Loop  --)

  (-- next depth z -000.500 --)
   G00 X0027.000 Y0000.000 F0200.000
   G01 Z-000.500 F0050.000
   G02 I-027.000 F0080.000

  (-- next depth z -000.500 --)
   G00 X0025.200 Y0000.000 F0200.000
   G01 Z-000.500 F0050.000
   G02 I-025.200 F0080.000

  (-- next depth z -000.500 --)
   G00 X0023.400 Y0000.000 F0200.000
   G01 Z-000.500 F0050.000
   G02 I-023.400 F0080.000

  (-- next depth z -000.500 --)
   G00 X0021.600 Y0000.000 F0200.000
   G01 Z-000.500 F0050.000
   G02 I-021.600 F0080.000

  (-- next depth z -000.500 --)
   G00 X0019.800 Y0000.000 F0200.000
   G01 Z-000.500 F0050.000
   G02 I-019.800 F0080.000

  (-- next depth z -000.500 --)
   G00 X0018.000 Y0000.000 F0200.000
   G01 Z-000.500 F0050.000
   G02 I-018.000 F0080.000

  (-- next depth z -000.500 --)
   G00 X0016.200 Y0000.000 F0200.000
   G01 Z-000.500 F0050.000
   G02 I-016.200 F0080.000

  (-- next depth z -000.500 --)
   G00 X0014.400 Y0000.000 F0200.000
   G01 Z-000.500 F0050.000
   G02 I-014.400 F0080.000

  (-- next depth z -000.500 --)
   G00 X0012.600 Y0000.000 F0200.000
   G01 Z-000.500 F0050.000
   G02 I-012.600 F0080.000

  (-- next depth z -000.500 --)
   G00 X0010.800 Y0000.000 F0200.000
   G01 Z-000.500 F0050.000
   G02 I-010.800 F0080.000

  (-- next depth z -000.500 --)
   G00 X0009.000 Y0000.000 F0200.000
   G01 Z-000.500 F0050.000
   G02 I-009.000 F0080.000

  (-- next depth z -000.500 --)
   G00 X0007.200 Y0000.000 F0200.000
   G01 Z-000.500 F0050.000
   G02 I-007.200 F0080.000

  (-- next depth z -000.500 --)
   G00 X0005.400 Y0000.000 F0200.000
   G01 Z-000.500 F0050.000
   G02 I-005.400 F0080.000

  (-- next depth z -000.500 --)
   G00 X0003.600 Y0000.000 F0200.000
   G01 Z-000.500 F0050.000
   G02 I-003.600 F0080.000

  (-- next depth z -000.500 --)
   G00 X0003.000 Y0000.000 F0200.000
   G01 Z-000.500 F0050.000
   G02 I-003.000 F0080.000
  (-- END Track Loop  --)
  (-- START Track Loop  --)

  (-- next depth z -001.000 --)
   G00 X0027.000 Y0000.000 F0200.000
   G01 Z-001.000 F0050.000
   G02 I-027.000 F0080.000

  (-- next depth z -001.000 --)
   G00 X0025.200 Y0000.000 F0200.000
   G01 Z-001.000 F0050.000
   G02 I-025.200 F0080.000

  (-- next depth z -001.000 --)
   G00 X0023.400 Y0000.000 F0200.000
   G01 Z-001.000 F0050.000
   G02 I-023.400 F0080.000

  (-- next depth z -001.000 --)
   G00 X0021.600 Y0000.000 F0200.000
   G01 Z-001.000 F0050.000
   G02 I-021.600 F0080.000

  (-- next depth z -001.000 --)
   G00 X0019.800 Y0000.000 F0200.000
   G01 Z-001.000 F0050.000
   G02 I-019.800 F0080.000

  (-- next depth z -001.000 --)
   G00 X0018.000 Y0000.000 F0200.000
   G01 Z-001.000 F0050.000
   G02 I-018.000 F0080.000

  (-- next depth z -001.000 --)
   G00 X0016.200 Y0000.000 F0200.000
   G01 Z-001.000 F0050.000
   G02 I-016.200 F0080.000

  (-- next depth z -001.000 --)
   G00 X0014.400 Y0000.000 F0200.000
   G01 Z-001.000 F0050.000
   G02 I-014.400 F0080.000

  (-- next depth z -001.000 --)
   G00 X0012.600 Y0000.000 F0200.000
   G01 Z-001.000 F0050.000
   G02 I-012.600 F0080.000

  (-- next depth z -001.000 --)
   G00 X0010.800 Y0000.000 F0200.000
   G01 Z-001.000 F0050.000
   G02 I-010.800 F0080.000

  (-- next depth z -001.000 --)
   G00 X0009.000 Y0000.000 F0200.000
   G01 Z-001.000 F0050.000
   G02 I-009.000 F0080.000

  (-- next depth z -001.000 --)
   G00 X0007.200 Y0000.000 F0200.000
   G01 Z-001.000 F0050.000
   G02 I-007.200 F0080.000

  (-- next depth z -001.000 --)
   G00 X0005.400 Y0000.000 F0200.000
   G01 Z-001.000 F0050.000
   G02 I-005.400 F0080.000

  (-- next depth z -001.000 --)
   G00 X0003.600 Y0000.000 F0200.000
   G01 Z-001.000 F0050.000
   G02 I-003.600 F0080.000

  (-- next depth z -001.000 --)
   G00 X0003.000 Y0000.000 F0200.000
   G01 Z-001.000 F0050.000
   G02 I-003.000 F0080.000
  (-- END Track Loop  --)
  (-- START Track Loop  --)

  (-- next depth z -001.500 --)
   G00 X0027.000 Y0000.000 F0200.000
   G01 Z-001.500 F0050.000
   G02 I-027.000 F0080.000

  (-- next depth z -001.500 --)
   G00 X0025.200 Y0000.000 F0200.000
   G01 Z-001.500 F0050.000
   G02 I-025.200 F0080.000

  (-- next depth z -001.500 --)
   G00 X0023.400 Y0000.000 F0200.000
   G01 Z-001.500 F0050.000
   G02 I-023.400 F0080.000

  (-- next depth z -001.500 --)
   G00 X0021.600 Y0000.000 F0200.000
   G01 Z-001.500 F0050.000
   G02 I-021.600 F0080.000

  (-- next depth z -001.500 --)
   G00 X0019.800 Y0000.000 F0200.000
   G01 Z-001.500 F0050.000
   G02 I-019.800 F0080.000

  (-- next depth z -001.500 --)
   G00 X0018.000 Y0000.000 F0200.000
   G01 Z-001.500 F0050.000
   G02 I-018.000 F0080.000

  (-- next depth z -001.500 --)
   G00 X0016.200 Y0000.000 F0200.000
   G01 Z-001.500 F0050.000
   G02 I-016.200 F0080.000

  (-- next depth z -001.500 --)
   G00 X0014.400 Y0000.000 F0200.000
   G01 Z-001.500 F0050.000
   G02 I-014.400 F0080.000

  (-- next depth z -001.500 --)
   G00 X0012.600 Y0000.000 F0200.000
   G01 Z-001.500 F0050.000
   G02 I-012.600 F0080.000

  (-- next depth z -001.500 --)
   G00 X0010.800 Y0000.000 F0200.000
   G01 Z-001.500 F0050.000
   G02 I-010.800 F0080.000

  (-- next depth z -001.500 --)
   G00 X0009.000 Y0000.000 F0200.000
   G01 Z-001.500 F0050.000
   G02 I-009.000 F0080.000

  (-- next depth z -001.500 --)
   G00 X0007.200 Y0000.000 F0200.000
   G01 Z-001.500 F0050.000
   G02 I-007.200 F0080.000

  (-- next depth z -001.500 --)
   G00 X0005.400 Y0000.000 F0200.000
   G01 Z-001.500 F0050.000
   G02 I-005.400 F0080.000

  (-- next depth z -001.500 --)
   G00 X0003.600 Y0000.000 F0200.000
   G01 Z-001.500 F0050.000
   G02 I-003.600 F0080.000

  (-- next depth z -001.500 --)
   G00 X0003.000 Y0000.000 F0200.000
   G01 Z-001.500 F0050.000
   G02 I-003.000 F0080.000
  (-- END Track Loop  --)
(-- END DEPTH loop --)
G00 Z0010.000 F100.0 
G00 X0030.000 Y0000.000 F200.0 
G00 Z10 F100 
M2

%
